!!!COM:	L van Beethoven
!!!OTL:	String Quartet No15 Op 132
**kern	**dynam
*I"Violin II	*
*clefG2	*
*k[]	*
*a:	*
*M2/2	*
=1	=1
!LO:TX:a:B:t=Assai sostenuto	!
1r	.
=2	=2
2r	.
(2B	pp
=3	=3
2A	.
2G#)	.
=4	=4
(2A 2f#	.
2g#)	.
=5	=5
(2d	pp
2c	.
=6	=6
2f	.
2e) 2cc	.
=7	=7
(2a	<
2g#)	>
=8	=8
(4f	pp
4f#	.
!LO:TX:t=cresc.	!
4g#	<
4d) 4dd	.
=9||	=9||
*M4/4	*
!LO:TX:a:B:t=Allegro	!
4d 4dd	f
4r	.
2r	.
=10	=10
2r	.
4r	.
4e 4a	p
=11	=11
1r	.
=12	=12
2r	.
4r	.
(4G#	p
=13	=13
2A	.
2d#)	.
=14	=14
1B	.
=15	=15
1B 1d	.
=16	=16
2.c	.
4r	.
=17	=17
4r	.
(8.b-L	<
16g#	[
4b-	>
4a)	]
=18	=18
4r	.
!LO:TX:t=cresc.	!
(8.aL	<
16e	.
4g	.
[4f)	.
=19	=19
4f	f
(8.fL	.
16d)	.
(8.dL	.
16B-)	.
(8.B-L	.
16A)	.
=20	=20
4G#	.
4cc# 4ee	.
4dd	.
4d# 4a	.
=21	=21
!LO:TX:a:B:t=Adagio	!
1c 1e	fp
=22	=22
!LO:TX:a:B:t=Allegro	!
4e	p
4r	.
2r	.
=23	=23
4r	.
(8.AL	p
16B	.
4c	.
8.BL	.
16A)	.
=24	=24
(4A	.
2.G#)	.
=25	=25
(1G#	.
=26	=26
2.A)	.
[4a	.
=27	=27
(4a	.
8.b-L	.
16g#	.
4b-	.
4a)	<
=28	=28
!LO:TX:t=cresc.	!
2a	<
2b-	.
=29	=29
(8.ddL	[
16b-)	.
(8.b-L	.
16f)	.
(8.fL	.
16d)	.
(8.dL	.
16B-)	.
=30	=30
4B-	f
4r	.
2r	.
=31	=31
1r	.
=32	=32
4r	.
(8.gL	f
16a-	.
4b-	.
8.gL	.
16f)	.
=33	=33
4f	.
2e	.
4g	.
=34	=34
4r	.
4g	p
4r	.
4g	.
=35	=35
4r	.
4a	.
4r	.
4f	.
=36	=36
4r	.
4c 4e	.
4r	.
4g	.
=37	=37
4r	.
4cc	.
4r	.
4cc	.
=38	=38
!LO:TX:t=cresc.	!
(16fLL	.
16e	.
16f	.
16d)	.
8dL	.
8d	.
(16dLL	.
16c#	.
16d	.
16B-)	.
8B-L	.
8b-	.
=39||	=39||
*k[b-]	*
*F:	*
(16b-LL	.
16a	.
16b-	.
16g)	.
8gL	.
8g	.
(16gLL	.
16f#	.
16g	.
16e)	.
8eL	.
8g	f
=40	=40
4g	.
4e	.
2r	.
=41	=41
4r	.
8.r	.
16f	p
4b-	.
4b-	.
=42	=42
4.b-	.
16a	.
16g	.
8gL	.
8g	.
16gLL	.
16a	.
8g	.
=43	=43
4g	.
4f	.
8BL	.
8b	.
16bLL	.
16a	.
8b	.
=44	=44
!LO:TX:t=cresc.	!
(8ccL	<
8g)	.
(8ccL	.
8g)	.
(8ccL	.
8f)	.
(8ccL	.
8c)	.
=45	=45
(8ccL	.
8g)	.
(8gL	.
8c)	.
(8fL	.
8c)	.
(8aL	.
8f)	.
=46	=46
(8b-L	.
8f)	.
(8cc	.
8f)	.
(8b-L	.
8f)	.
(8f	.
8B-)	.
=47	=47
(8fL	.
8d)	.
(8g	.
8d)	.
(8aL	f
8f)	.
(8e	.
8G)	.
=48	=48
2r	.
8r	.
!LO:TX:t=p dolce	!
(8f	.
8g	.
8a)	.
=49	=49
4..b-	.
16a	.
(4g	.
4g)	.
=50	=50
(4b-	.
8a	.
8g	.
4f	.
8g	.
8a)	.
=51	=51
4.g	.
8e	.
(4.f	.
8B)	.
=52	=52
4c	.
4r	.
2r	.
=53	=53
2r	.
!LO:TX:t=cresc.	!
2f	.
=54	=54
2B-	.
2dd	.
=55	=55
8r	.
(16g	p
16f	.
16eLL	.
16f	.
16g	.
16f)	.
8r	.
(16f	.
16e	.
16dLL	.
16e	.
16f	.
16e)	.
=56	=56
12r	.
12dd	.
12cc	.
4f	.
12r	.
12dd	.
12cc	.
4g	.
=57	=57
(4c	.
4B-	.
4A	.
4ee)	.
=58	=58
(4cc	.
4ee	.
4ff	.
4gg)	.
=59	=59
!LO:TX:t=cresc.	!
8aaL	.
(16aa	<
16gg	.
[4ff)	.
8ffL	.
(16ff	.
16ee	.
[4dd)	.
=60	=60
8ddL	.
(16dd	.
16cc	.
[4b-)	.
!LO:TX:t=non legato	!
8b-L	.
16d	.
16e	.
16fLL	.
16g	.
16a	.
16b-	.
=61	=61
16ccLL	f
16dd	[
16ee	.
16ff	.
16ggLL	.
16ff	.
16ee	.
16dd	.
16ccLL	.
16dd	.
16ee	.
16ff	.
16ggLL	.
16aa	.
16bb-	.
16ccc	.
=62	=62
16ffLL	.
16ee	.
16dd	.
16cc	.
16b-LL	.
16a	.
16g	.
16f	.
[2b	ff
=63	=63
4b	p
!LO:TX:t=legato	!
(4b-	.
4cc	.
4ee	.
=64	=64
4ff)	.
*^	*
(2f	4d	.
.	4c	.
*v	*v	*
4g)	.
=65	=65
(4c	.
!LO:TX:t=cresc.	!
4g	<
4G	.
4cc)	.
=66	=66
4cc	.
4B	.
(16cLL	.
16g	.
16f	.
16e	.
16fLL	.
16g	.
16a	.
16b-)	[
=67	=67
(8.aL	ff
16g)	sf
(8.GL	.
16e)	.
(8.B-L	sf
16d-)	.
(8.eL	sf
16f)	.
=68	=68
(2f	p
2e)	.
=69	=69
(8.cL	sf
16d-)	.
(8.eL	sf
16dd-)	.
(8.dd-L	sf
16bb-)	.
(8.ggL	sf
16aa)	.
=70	=70
(2f	p
2A)	.
=71	=71
!LO:TX:B:t=Rit.	!
(2f	.
2e)	.
=72	=72
(2f	.
2G) 2e	.
=73	=73
!LO:TX:a:B:t=A tempo	!
8fL	p
8r	.
8f	.
8r	.
8aL	.
8r	.
8g	f
8r	.
=74	=74
4r	.
4e-	p
2r	.
=75	=75
1r	.
=76	=76
1r	.
=77	=77
1r	.
=78	=78
(1a	pp
=79	=79
1cc)	.
=80	=80
(2b-	.
2B-)	.
=81	=81
(1c 1e-	.
=82	=82
1B-) 1d	.
=83	=83
1c 1d	.
=84	=84
4d	.
(2G 2g	.
8.a-L	.
16g)	.
=85	=85
(4dd	.
4g	.
4d	.
4g)	.
=86	=86
(4c	.
8.A-L	.
16G)	.
(4G	.
8.e-L	.
16d)	.
=87	=87
(4d	.
8.cL	.
16d	.
4e-	.
8.dL	.
16c)	.
=88	=88
!LO:TX:t=cresc.	!
(4c	.
2.B)	.
=89	=89
2c	.
2cc	.
=90	=90
1ccc	.
=91	=91
4ccc	f
4ccc	.
4dd 4ccc	.
4dd 4bb	.
=92||	=92||
*k[]	*
*C:	*
1r	.
=93	=93
1r	.
=94	=94
2r	.
8.r	.
(16d	p
8.c	.
16d)	.
=95	=95
(8fL	.
[4.e)	.
8eL	.
(8f	.
8.e	.
16f)	.
=96	=96
(8aL	.
[4.g)	.
8gL	.
(8a	.
8.g	.
16a)	.
=97	=97
(8.aL	.
16cc#)	.
8cc#L	.
8dd	.
(8.eeL	.
16b)	.
8bL	.
8cc	.
=98	=98
8.fL	.
16c	.
8cL	.
8g	.
8aL	.
8b	.
8cc	.
8dd	.
=99	=99
!LO:TX:t=cresc.	!
1c	<
=100	=100
1cc	.
=101	=101
1b 1ee	.
=102	=102
4cc 4ee	f
4cc# 4ee	.
4f# 4ee	.
4f# 4dd#	.
=103	=103
1d#	.
=104	=104
1e	f
=105	=105
1ee	f
=106	=106
!LO:TX:t=f H	!
1f# 1dd#	.
=107	=107
1B	p
=108	=108
[1B	.
=109	=109
1B	.
=110	=110
!LO:TX:t=cresc.	!
1B	.
=111||	=111||
*k[f#]	*
*e:	*
4A 4f#	f
(8.f#L	.
16g	.
4cc	.
8.bL	.
16a)	.
=112	=112
4g	.
(8.gL	.
16a)	.
[2b	.
=113	=113
4b	.
(8.gL	.
16a	.
4b	.
8.aL	.
16g)	.
=114	=114
(4g	.
!LO:TX:t=dim.	!
2f#	.
4e)	.
=115	=115
(4e	.
2d#)	.
4r	.
=116	=116
2r	.
(4f#	pp
4f	.
=117	=117
4e	.
4d#	.
4b	.
4cc)	.
=118	=118
!LO:TX:t=cresc.	!
4cc	.
4d# 4cc	.
4e 4cc	.
4f# 4cc	.
=119	=119
4a 4cc	f
4r	.
2r	.
=120	=120
2r	.
4r	.
4dd#	p
=121	=121
2r	.
2r	.
=122	=122
1r	.
=123	=123
(1cc	p
=124	=124
1b)	.
=125	=125
1f#	.
=126	=126
(2.g	.
8a	.
8a#)	.
=127	=127
2.b	.
4b	.
=128	=128
(2cc	.
!LO:TX:t=cresc.	!
2cc)	.
=129	=129
(8.fL	f
16c)	.
(8.cL	.
16A)	.
(8.aL	.
16f)	.
(8.fL	.
16e)	.
=130	=130
4d#	.
4a	.
4g	.
4f# 4ee	.
=131	=131
!LO:TX:a:B:t=Adagio	!
2e 2ee	p
2g 2ee	.
=132	=132
!LO:TX:a:B:t=Allegro	!
1dd#	.
=133	=133
(2.dd	<
4g#)	>
=134	=134
1g	p
=135	=135
4r	.
(8.ddL	.
16ee	.
4ff	.
8.eeL	.
16dd)	.
=136	=136
(4dd	.
8.cc#L	.
16dd	.
4ee	.
8.ddL	.
16cc#)	.
=137	=137
(4ee	.
2dd)	.
(8.dL	.
16e)	.
=138||	=138||
*k[]	*
*C:	*
(4e	.
8.dL	.
16e)	.
4e	.
(8.eL	.
16g)	.
=139	=139
(4e	.
8.cc#L	.
16dd)	.
4dd	.
(8.B-L	.
16A)	.
=140	=140
(4A	.
8.BL	.
16A)	.
4A	.
4d 4f	.
=141	=141
1d 1dd	.
=142	=142
4d 4dd	.
(8.dL	.
16e-	.
4f	.
8.dL	.
16c)	.
=143	=143
(4c	f
2B)	.
(8.BL	.
16c)	.
=144	=144
4d 4dd	.
(8.dL	.
16e-	.
4f	.
8.dL	.
16c)	.
=145	=145
(4c	p
8.BL	.
16f#)	.
(4f#	.
8.gL	.
16f)	.
=146	=146
(4f	.
4e)	.
4r	.
4g	.
=147	=147
8r	.
(16b	.
16cc	.
16ddLL	.
16cc#	.
16dd	.
16f#)	.
4g	.
4g	.
=148	=148
4r	.
4g	.
4r	.
4g 4cc	.
=149	=149
!LO:TX:t=cresc.	!
(16aLL	<
16g#	.
16a	.
16f)	.
8fL	.
8f	.
(16fLL	.
16e	.
16f	.
16d)	.
8fL	.
8f	.
=150	=150
(16fLL	.
16e	.
16f	.
16d)	.
8dL	.
8d	.
(16dLL	.
16c#	.
16d	.
16B)	.
8BL	.
8A	f
=151	=151
4a	.
8g#	.
16r	.
16b	p
4ee	.
4ee	.
=152	=152
(4.ee	.
16dd	.
16cc)	.
8ccL	.
8cc	.
(16ccLL	.
16dd	.
8cc)	.
=153	=153
(4cc	.
8b)	.
8b	.
8bL	.
8b	.
(16bLL	.
16cc	.
8b)	.
=154	=154
8aL	.
8g	.
(16gLL	.
16f	.
8e)	.
8gL 8cc	.
8g	.
8g	.
8f#	.
=155	=155
!LO:TX:t=cresc.	!
(8.gL	<
16d)	.
(8.fL	.
16B)	.
(8.gL	.
16G)	.
(8.gL	.
16e)	.
=156	=156
(8.gL	.
16f)	.
(8.gL	.
16f)	.
(8.gL	.
16c)	.
(8.ccL	.
16f)	.
=157	=157
(8.ccL	.
16f#)	.
(8.ccL	.
16e)	.
(8.eL	.
16b-)	.
(8.b-L	.
16a)	.
=158	=158
(8.aL	.
16d)	.
(8.dL	.
16e-)	[
(8.e-L	f
16e)	.
(8.eL	>
16f)	]
=159	=159
!LO:TX:t=non legato	!
12r	.
12a	p
12g	.
4c	.
12r	.
12a	.
12g	.
4c	.
=160	=160
12r	.
12a	.
12g	.
4B	.
12r	.
12a	.
12g	.
4B	.
=161	=161
12r	.
12a	.
12g	.
4c	.
12r	.
12a	.
12g	.
4c	.
=162	=162
12r	.
12a	.
12g	.
4B	.
12r	.
12g	.
12f#	.
4c	.
=163	=163
12r	.
12a	.
12g	.
4B	.
12r	.
12a	.
12g	.
4c	.
=164	=164
12r	<
12a	.
12g	.
4c	.
!LO:TX:t=piu cresc.	!
12r	[
12d	.
12c	.
4c	.
=165	=165
12r	.
!LO:TX:t=dim.	!
12dd	.
12cc	.
4f	.
12r	.
12dd	.
12cc	.
4f	.
=166	=166
12r	.
12dd	p
12cc	.
4e	.
12r	.
12cc	.
12b	.
4f	.
=167	=167
12r	.
12dd	.
12cc	.
4e	.
12r	.
12cc	.
12b	.
(8dL	.
16ff	.
16dd)	.
=168	=168
(4cc	.
*^	*
4f	2.G	.
4e	.	.
4f)	.	.
*v	*v	*
=169	=169
4G	.
(8g	.
16a	.
16b	.
8ccL	.
16dd	.
16cc	.
8bL	.
16cc	.
16dd)	.
=170	=170
!LO:TX:t=cresc.	!
8eeL	.
[8e	.
(16eLL	.
16G	.
16e	.
16d)	.
8cL	.
[8cc	.
(16ccLL	.
16c	.
16cc	.
16b)	.
=171	=171
8aL	.
[8aa	.
16aaLL	.
(16a	.
16aa	.
16gg	.
16ffLL	.
16gg	.
16ff	.
16ee	.
16ddLL	.
16cc#	.
16dd	.
16b)	.
=172	=172
(4ee	p
!LO:TX:t=dolce	!
4dd	.
4cc	.
4g)	.
=173	=173
(8ccL	.
16dd	.
16cc	.
8bL	.
16cc	.
16dd	.
8eeL	.
16ff	.
16ee	.
8ddL	.
16ee	.
16ff)	.
=174	=174
!LO:TX:t=cresc.	!
8ggL	<
[8g	.
(16gLL	.
16G	.
16g	.
16f)	.
8eL	.
[8ee	.
(16eeLL	.
16e	.
16ee	.
16dd)	.
=175	=175
(8ccL	.
[8a)	.
16aLL	.
(16A	.
16a	.
16g)	.
16fLL	.
16gg	.
16ff	.
16ee	.
16ddLL	.
16cc	.
16b	.
16a	.
=176	=176
16gLL	f
16a	.
16b	.
16cc	.
16ddLL	.
16cc	.
16b	.
16a	.
16gLL	.
16a	.
16b	.
16cc	.
16ddLL	.
16ee	.
16ff	.
16gg	.
=177	=177
4gg	.
4r	.
16cccLL	ff
16bb	.
16aa	.
16gg	.
16ff#LL	.
16ee	.
16dd	.
16cc	.
=178	=178
4cc	p
(4d 4cc	.
4d	.
4B) 4g	.
=179	=179
4c 4g	.
(4ff#	.
4gg	.
4bb)	.
=180	=180
(16dddLL	.
16ccc	.
16bb	.
16ccc	.
!LO:TX:t=cresc.	!
16bbLL	<
16ccc	.
16bb	.
16aa)	.
(16aaLL	.
16gg	.
16ff#	.
16gg)	.
(16ggLL	.
16ff	.
16ee	.
16dd)	.
=181	=181
(16ffLL	.
16ee	.
16dd	.
16cc)	.
(16ccLL	.
16b	.
16a	.
16g)	.
(16eLL	.
16f	.
16g	.
16a	.
16bLL	.
16cc	.
16dd	.
16ff)	[
=182	=182
(8.eeL	f
16f)	.
(8.bL	.
16d)	.
(8.a-L	.
16f)	.
(8.ddL	.
16ee)	.
=183	=183
(2e-	p
2B)	.
=184	=184
(8.eL	f
16f)	.
(8.dL	.
16f)	.
(8.fL	.
16a-)	.
(8.ddL	.
16cc)	.
=185	=185
(2cc	p
2c) 2e	.
=186	=186
!LO:TX:B:t=Rit.	!
2e-	.
2b	.
=187	=187
!LO:TX:t=cresc.	!
2c	.
2f 2b	.
=188	=188
!LO:TX:a:B:t=a tempo	!
8cL	p
8r	.
8c	.
8r	.
8cL	.
8r	.
8d	f
8r	.
=189	=189
4r	.
4d	p
2r	.
=190	=190
4r	.
8d	.
8r	.
8cL	.
8r	.
8e	f
8r	.
=191	=191
4r	.
4b-	p
2r	.
=192	=192
!LO:TX:t=cresc.	!
8eL	<
8r	.
8A	.
8r	.
8aL	.
8r	.
8a	.
8r	.
=193	=193
(1dd	p
=194	=194
[1cc)	.
=195	=195
(4cc	.
8.aL	.
16b	.
4cc	.
8.bL	.
16a)	.
=196	=196
(4a	.
2g#	.
4G#)	.
=197	=197
1A	.
=198	=198
2G#	.
[2cc	.
=199	=199
(4cc	.
8.aL	.
16b	.
4cc	.
8.bL	.
16a)	.
=200	=200
(4a	.
2g#)	.
(8.g#L	.
16B)	.
=201	=201
(4B	.
8.dL	.
16c	.
4B	.
8.cL	.
16d)	.
=202	=202
!LO:TX:t=cresc.	!
(4B	.
8.cL	.
16d	.
4e	.
8.dL	.
16c)	.
=203	=203
4c	f
(8.ccL	.
16b	.
4a	.
8.bL	.
16cc)	.
=204	=204
4r	.
(8.ddL	.
16cc	.
4b	.
8.ccL	.
16dd)	.
=205	=205
4dd	.
2B 2d	.
(8.bL	.
16g#)	.
=206	=206
(4b	>
2a)	.
(8.ffL	.
16dd#)	.
=207	=207
(4ff	p
2ee)	.
(4c#	.
=208	=208
1d)	.
=209	=209
1e	.
=210	=210
!LO:TX:t=cresc.	!
2f	<
2e	.
=211	=211
2d	.
2d#	.
=212	=212
4f	sf
4e	.
4d	.
4cc	.
=213	=213
4b	f
4a	.
4g	.
4f	.
=214	=214
4G#	.
4r	.
2r	.
=215	=215
4r	.
8.r	.
16cc	p
4ff	.
4ff	.
=216	=216
(4.ff	.
16ee	.
16dd)	.
8ddL	.
8dd	.
(16ddLL	.
16ee	.
8dd)	.
=217	=217
(4dd	.
4cc)	.
8eeL	.
8ee	.
8ee	.
8ee	.
=218	=218
(8dd#L	.
8ee)	.
(16ccLL	.
16dd#	.
8cc)	.
(8ccL	.
8b)	.
8r	.
8dd#	.
=219	=219
!LO:TX:t=cresc.	!
(8.dd#L	<
16ee)	.
8eeL	.
8dd#	.
(8.dd#L	.
16ee)	.
8eeL	.
8ee	.
=220	=220
(8.eeL	.
16ff)	.
8ffL	.
8ee	.
(8.eeL	.
16ff)	.
8ffL	.
8cc	.
=221	=221
(8.ccL	.
16e)	.
(8.b-L	.
16a)	.
(8.aL	.
16ee-)	.
(8.aL	.
16dd)	.
=222	=222
(8.ddL	.
16b)	.
(8.dL	.
16cc)	[
(8.aL	f
16cc)	.
(8.cL	.
16d) 16e	.
=223	=223
12r	.
!LO:TX:t=p non legato	!
12B	.
12A	.
[4e	.
[4e	.
12e	.
12B	.
12A	.
=224	=224
12eL	.
12A	.
12G#	.
4e	.
12r	.
12A	.
12G#	.
4g#	.
=225	=225
12r	.
12B	.
12A	.
4e	.
12r	.
12B	.
12A	.
4e	.
=226	=226
12r	.
12f#	.
12e	.
4ee	.
12r	.
12ee	.
12dd#	.
12ff#L	.
12dd#	.
12a	.
=227	=227
12g#L	.
12e	.
12d#	.
12c#L	.
12B	.
12A	.
4G#	.
4r	.
=228	=228
12r	.
12B	.
12A	.
4a	.
12r	.
12B	.
12A	.
4a	.
=229	=229
12r	.
!LO:TX:t=dim.	!
12B	.
12A	.
4a	.
12r	.
12B	.
12A	.
4a	.
=230	=230
12r	.
12B	p
12A	.
4e	.
12r	.
12A	.
12G#	.
4e	.
=231	=231
12r	.
12B	.
12A	.
4e	.
12r	.
12A	.
12G#	.
4e	.
=232	=232
4r	.
8r	.
(16dd#	pp
16a	.
16dd#LL	.
16a	.
16dd#	.
16a	.
16dd#LL	.
16a	.
16dd#	.
16a)	.
=233	=233
4r	.
8r	.
(16B	.
16G#	.
16BLL	.
16G#	.
16B	.
16G#	.
16BLL	.
16G#	.
16B	.
16G#)	.
=234	=234
1g#	.
=235	=235
4r	.
8r	.
!LO:TX:t=cresc.	!
(16cc	.
16a	.
16ccLL	.
16a	.
16cc	.
16a	.
16ccLL	.
16a	.
16cc	.
16a)	.
=236	=236
(16ccLL	f
16c	.
16a	.
16c)	.
(16aLL	.
16c	.
16a	.
16c)	.
(16aLL	.
16c	.
16a	.
16c	.
16aLL	.
16c	.
16a	.
16c)	.
=237	=237
(16aLL	.
16c	.
16a	.
16c)	.
(16bLL	.
16g#	.
16b	.
16g#	.
16bLL	.
16g#	.
16b	.
16g#	.
16bLL	.
16g#	.
16b	.
16g#)	.
=238	=238
(16bLL	.
16g#	.
16b	.
16g#	.
16bLL	.
16g#	.
16b	.
16g#)	.
(16bLL	.
16g#	.
16b	.
16g#	.
16bLL	.
16g#	.
16b	.
16g#)	.
=239	=239
(16ccLL	sf
16e	.
16cc	.
16e	.
16ccLL	.
16e	.
16cc	.
16e	.
16ccLL	.
16e	.
16cc	.
16e)	.
(16bLL	.
16g#	.
16b	.
16g#)	.
=240	=240
(16ccLL	sf
16e	.
16cc	.
16e	.
16ccLL	.
16e	.
16cc	.
16e	.
16ccLL	.
16e	.
16cc	.
16e)	.
(16bLL	.
16g#	.
16b	.
16g#)	.
=241	=241
2a	.
2r	.
=242	=242
(16ffLL	.
16f	.
16ff	.
16f	.
16ffLL	.
16f	.
16ff	.
16f)	.
2r	>
=243	=243
(16B-LL	p
16G	.
16A	.
16G	.
16ALL	.
16G	.
16A	.
16G)	.
!LO:TX:t=cresc.	!
(16fLL	.
16A	.
16f	.
16A	.
16fLL	.
16A	.
16f)	.
16A	.
=244	=244
(16aLL	.
16c	.
16a	.
16c	.
16aLL	.
16c	.
16a)	.
16c	.
(16g#LL	.
16B	.
16g#	.
16B	.
16g#LL	.
16B	.
16g#)	.
16B	.
=245	=245
(16B-LL	f
16G	.
16A	.
16G	.
16ALL	.
16G	.
16A	.
16G)	.
!LO:TX:t=piu f	!
(16fLL	.
16A	.
16f	.
16A	.
16fLL	.
16A	.
16f	.
16A)	.
=246	=246
(16aLL	.
16c	.
16a	.
16c)	.
(16ccLL	.
16a	.
16cc	.
16a)	.
(16ccLL	.
16a	.
16cc	.
16a)	.
(16bLL	.
16g#	.
16b	.
16g#)	.
=247	=247
1ff	ff
=248	=248
[1ee	>
=249	=249
(2.ee	p
[4dd#)	.
=250	=250
4dd#	.
[2.ee	.
=251	=251
!LO:TX:t=morendo	!
4ee	.
[2.dd	.
=252	=252
(8ddL	pp
[4.cc)	.
!LO:TX:t=sempre pp	!
(8ccL	.
[4.b)	.
=253	=253
(8bL	.
[4.a)	.
(8aL	.
4.g#)	.
=254	=254
1r	.
=255	=255
1g#	pp
=256	=256
(16bLL	.
16g#	.
16b	.
16g#	.
16bLL	.
16g#	.
16b	.
16g#	.
16bLL	.
16g#	.
16b	.
16g#	.
16bLL	.
16g#	.
16b	.
16g#)	.
=257	=257
!LO:TX:t=cresc.	!
1b 1gg#	<
=258	=258
4a 4aa	f
4a 4aa	.
4a 4aa	.
4a 4aa	.
=259	=259
(8.aaL	.
16bb)	.
2ccc	sf
4bb	.
=260	=260
4a 4aa	.
4a 4aa	.
4a 4aa	.
4a 4aa	.
=261	=261
(8.aaL	.
16bb)	.
2ccc	sf
4bb	.
=262	=262
4cc 4aa	.
4r	.
4b 4bb	.
4r	.
=263	=263
4cc 4ccc	.
4r	.
4eee	.
4r	.
=264	=264
4c 4e 4a	.
4r	.
2r	.
=265!|:	=265!|:
*k[f#c#g#]	*
*A:	*
*M3/4	*
!LO:TX:a:B:t=Allegro ma non tanto	!
(4G#	p
4A	.
4c#)	.
=266	=266
(4c#	.
4d	.
4f#)	.
=267	=267
(4A#	.
4c#	.
4d#)	.
=268	=268
(4d#	.
4e	.
4g#)	.
=269	=269
(4G#	.
4A	.
4c#)	.
=270	=270
4c#	.
4d	.
4f#	.
=271	=271
2.r	.
=272	=272
2.r	.
=273	=273
(4B#	.
4c#	.
4e)	.
=274	=274
(4e#	.
4f#	.
4a)	.
=275	=275
(4e	pp
4f#	.
4a)	.
=276	=276
4B	.
4r	.
4r	.
=277	=277
(2g#	pp
8f#L	.
8e)	.
=278	=278
(8d#L	.
8B#)	.
4c#	.
4r	.
=279	=279
(2a	<
8g#L	[
8f#)	>
=280	=280
(8eL	]
8c#)	.
(4d#	.
4f#)	.
=281	=281
(4f#	.
4g#	.
4b)	.
=282	=282
!LO:TX:t=cresc.	!
(4e	<
4A	.
4g#)	.
=283	=283
(4e#	.
4a	.
4f#)	.
=284	=284
(4d#	.
4g#	.
4g#)	.
=285	=285
(8g#L	.
8b)	.
4a	[
4a	f
=286	=286
(8aL	.
8f#)	.
4e	.
4r	.
=287:|!	=287:|!
(8aL	.
8f#)	.
4e	.
4G	p
=288	=288
4r	.
(4G	.
4B)	.
=289	=289
(4B	.
4c	.
4e)	.
=290!|:	=290!|:
(4f#	.
4g	.
4b)	.
=291	=291
(4b	.
4cc	.
4ee)	.
=292||	=292||
*k[]	*
*C:	*
(2ff	<
8eeL)	[
8dd	>
=293	=293
(8ddL	]
8b)	.
4cc	.
4r	.
=294	=294
(2ff	<
8eeL	[
8dd)	>
=295	=295
(8ddL	]
8b)	.
4cc	.
4r	.
=296	=296
4r	.
!LO:TX:t=cresc.	!
(4ee	.
8ffL	.
8gg)	.
=297	=297
(4ff	f
4f	.
4a)	.
=298	=298
(4a	.
4b-	.
4dd)	.
=299	=299
(2b-	.
8aL	.
8g)	.
=300	=300
(8fL	.
8d)	.
4e	.
(8ggL	p
8ee)	.
=301	=301
(2aa	.
8ggL	.
8ff)	.
=302	=302
!LO:TX:t=cresc.	!
(8eeL	<
8cc)	.
4dd	.
4r	.
=303	=303
(8ffL	.
8dd)	.
4ee	.
4r	.
=304	=304
(8ggL	f
8ee)	.
4ff	.
4ff	.
=305	=305
(4ff	.
4gg)	.
4ee	.
=306	=306
4a	pp
4d	.
4c 4g	.
=307	=307
4cc	.
4f	.
4g 4b-	.
=308	=308
4e	.
4f	.
4g 4dd	.
=309	=309
4g 4cc	.
4f 4cc	.
(8fL	.
8G)	.
=310	=310
!LO:TX:t=cresc.	!
(2f	<
8eL)	.
8d)	.
=311	=311
(2g	.
8fL	.
8e)	.
=312	=312
(2B 2d	.
8eL	.
8f)	.
=313	=313
(2c 2e	.
8fL	.
8g)	.
=314	=314
(2g 2b	.
8ccL	.
8dd)	.
=315	=315
(2g 2cc	.
8ddL	.
8ee)	[
=316	=316
2.r	.
=317	=317
(2cc	p
8bL	.
8a)	.
=318	=318
(8gL	.
8e)	.
4f	.
4d	.
=319	=319
(4G 4d	.
4c)	.
4r	.
=320	=320
(4b	.
4cc	.
!LO:TX:t=cresc.	!
8ddL	<
8ee)	.
=321	=321
(8ddL	.
8f)	.
4e	.
4r	.
=322	=322
4r	.
4r	.
(4gg#	.
=323	=323
8bbL	.
8ee	.
4ee)	.
4r	.
=324	=324
4r	.
4r	[
(4cc	f
=325	=325
4ee	.
4ff)	.
(8ccL	p
8b)	.
=326	=326
(8bL	.
8g#)	.
4a	.
4ee	f
=327	=327
(8eeL	.
8a)	.
4a	.
(8aL	p
8g)	.
=328	=328
(8gL	.
8e)	.
4f	.
4r	.
=329	=329
4r	.
4r	.
(8ddL	p
8cc#)	.
=330	=330
(8ccL	.
8a)	.
4b	.
4r	.
=331	=331
4r	.
4r	.
(8ccL	p
8b)	.
=332	=332
(8bL	.
8g#)	.
4a	.
4r	.
=333	=333
4r	.
4r	.
(8cc#	pp
8b)	.
=334	=334
(8bL	.
8g#)	.
4a	.
(8f#L	.
8b)	.
=335	=335
[4e	.
8eL	.
(8d	.
8c#	.
8d)	.
=336||	=336||
*k[f#c#g#]	*
*A:	*
(8eL	p
8d	.
8c#	.
8d	.
8eL)	.
8r	.
=337	=337
2.r	.
=338	=338
(8f#L	.
8e	.
8d	.
8e	.
8f#L)	.
8r	.
=339	=339
2.r	.
=340	=340
(8eL	.
8d	.
8c#	.
8d	.
8eL)	.
8r	.
=341	=341
4A	pp
4r	.
4r	.
=342	=342
4d#	.
4r	.
4r	.
=343	=343
4B 4e	.
4r	.
4r	.
=344	=344
(2a	<
8g#L	[
8f#)	>
=345	=345
(8eL	pp
8c#)	.
4d	.
4r	.
=346	=346
(8f#L	.
8d#)	.
4B 4e	.
4r	.
=347	=347
(8dL	.
8B)	.
4c#	.
4r	.
=348	=348
!LO:TX:t=cresc.	!
(2cc#	<
8bL	.
8a)	.
=349	=349
(8g#L	.
8e#)	.
4f#	.
4r	.
=350	=350
(8aL	.
8f#)	.
4g#	.
4r	.
=351	=351
(8bL	.
8g#)	.
4a	.
4r	.
=352	=352
(8ddL	p
8b	.
4cc#	.
4ee)	.
=353	=353
(4e#	.
4f#	.
4a)	.
=354	=354
(8eeL	.
8cc#	.
4dd	.
4ff#)	.
=355	=355
(4f#	.
4g#	.
4b)	.
=356	=356
!LO:TX:t=cresc.	!
(2ee	<
8ddL	.
8cc#)	.
=357	=357
(8bL	.
8g#)	.
4a	.
(8cc#L	.
8ee)	.
=358	=358
4a	.
4a	.
(8a#L	.
8cc#)	.
=359	=359
4f#	.
4f#	.
(8g#L	.
8b)	.
=360	=360
(8eL	.
8b)	.
4e	[
(4a#	p
=361	=361
4cc#	.
4ff#)	.
!LO:TX:t=cresc.	!
(4g#	<
=362	=362
4b	.
4ee)	.
(8BL	.
8c#)	.
=363	=363
(8c#L	.
8e)	.
4d	.
(8eL	f
8g#)	.
=364	=364
(8g#L	.
8b)	.
4e 4a	.
(4A	p
=365	=365
4G#	.
4A	.
4c)	.
=366	=366
(4B	.
4c	.
4e)	.
=367	=367
(4f#	.
4g	.
4c)	.
=368	=368
(4B	.
4c	.
4e)	.
=369:|!	=369:|!
(8g#L	.
8b)	.
4e 4a	.
(8aL	pp
8g#)	.
=370	=370
(8g#L	.
8e)	.
4f#	.
4r	.
=371	=371
4r	.
4r	.
(8bL	.
8a)	.
=372	=372
(8aL	.
8f#)	.
4g#	.
4r	.
=373	=373
4r	.
4r	.
!LO:TX:t=sempre	!
(8d#L	.
8e)	.
=374	=374
(8eL	pp
8g#)	.
4f#	.
(8aaL	.
8gg#)	.
=375	=375
(8gg#L	.
8ee#)	.
4ff#	.
(8eL	.
8f#)	.
=376	=376
(8f#L	.
8a)	.
4g#	.
(8ff#L	.
8ee)	.
=377	=377
(8eeL	.
8cc#)	.
4dd	.
!LO:TX:t=cresc.	!
(8ccc#L	<
8bb)	.
=378	=378
(8eeL	.
8dd)	.
(8cc#L	.
8b)	.
(4e	.
=379	=379
4g#	.
4b)	.
4d 4b	[
=380	=380
2.r	.
=381	=381
(2cc#	p
8bL	.
8a)	.
=382	=382
(8aL	.
8f#)	.
4g#	.
4r	.
=383	=383
(2cc#	<
8bL	[
8a)	>
=384	=384
!LO:TX:t=cresc.	!
(8aL	<
8f#)	.
4g#	.
4r	.
=385	=385
(8bL	.
8g#)	.
4a	.
4r	.
=386	=386
(8cc#L	.
8a)	.
4b	.
4r	[
=387	=387
(2ee	f
8ddL	.
8cc#)	.
=388	=388
(8bL	.
8g#)	.
4a	.
4r	.
=389	=389
(8dL	p
8e)	.
4c#	.
==	==
4r	.
=390	=390
2.r	.
=391	=391
4r	.
4r	.
(8AL	p
8c#	.
=392	=392
8eL	.
8a	.
8cc#	.
8ee)	.
(8cc#L	.
8aa	.
=393	=393
8ddL	.
8aa	.
8cc#	.
8aa	.
8b	.
8aa	.
=394	=394
8cc#L	.
8aa	.
8b	.
8aa	.
8a	.
8aa)	.
=395	=395
(8bL	.
8aa	.
8a	.
8aa	.
8b	.
8aa)	.
=396	=396
(8bL	.
8aa	.
8cc#	.
8aa	.
8dd	.
8cc#)	.
=397	=397
(8ddL	.
8aa	.
8cc#	.
8aa	.
8b	.
8aa	.
=398	=398
8cc#L	.
8aa	.
8b	.
8aa	.
8a	.
8aa)	.
=399	=399
(8bL	.
8aa	.
8a	.
8aa	.
8ff#	.
8dd)	.
=400	=400
(8eeL	.
8ff#	.
8ee	.
8cc#)	.
(8aL	.
8cc#	.
=401	=401
8eeL	.
8aa	.
8ccc#	.
8eee)	.
(8eeL	.
8aa	.
=402	=402
8eeL	.
8ccc#	.
8ee	.
8ccc#)	.
(8eeL	.
8aa	.
=403	=403
8eeL	.
8ccc#	.
8ee	.
8cc#)	.
(8cc#L	.
8aa	.
=404	=404
8ddL	.
8aa	.
8cc#	.
8aa	.
8b	.
8aa)	.
=405	=405
(8cc#L	.
8aa	.
8b	.
8aa	.
8a	.
8aa)	.
=406	=406
(8bL	.
8aa	.
8a	.
8aa	.
8b	.
8aa)	.
=407	=407
(8bL	.
8aa	.
8cc#	.
8aa	.
8dd	.
8cc#)	.
=408	=408
(8ddL	.
8aa	.
8cc#	.
8aa	.
8b	.
8aa)	.
=409	=409
(8cc#L	.
8aa	.
8b	.
8aa	.
8a	.
8aa)	.
=410	=410
(8bL	.
8aa	.
8a	.
8aa	.
8ff#	.
8dd)	.
=411	=411
(8eeL	.
8a	.
8b	.
8cc#)	.
4g# 4b	pp
=412	=412
4c# 4g#	.
4c# 4g#	.
4c# 4a	.
=413	=413
4c# 4a	.
4c# 4a	.
4B 4f#	.
=414	=414
4B 4f#	.
4B 4f#	.
4B 4g#	.
=415	=415
4B 4g#	.
4B 4g#	.
4B 4a	.
=416	=416
4B 4a	.
4B 4a	.
4B 4a	.
=417	=417
4B 4e	.
4e 4b	.
4e 4cc#	.
=418	=418
4e 4b	.
4e 4ee	.
4f# 4dd#	.
=419	=419
4g# 4ee	.
4G#	.
4G#	.
=420	=420
4G#	.
4G#	.
(8ff#L	.
8ee#	.
=421	=421
8ff#L	.
8gg#	.
8aa	.
8ff#)	.
4r	.
=422	=422
4r	.
4r	.
(8eeL	.
8dd#	.
=423	=423
8eeL	.
8ff#	.
8gg#	.
8ee)	.
!LO:TX:t=cresc.	!
4c#	<
=424	=424
4c#	.
4c# 4f#	.
(8bL	.
8a#	.
=425	=425
8bL	.
8cc#	.
8dd	.
8b)	.
4B	.
=426	=426
4B	.
4B 4e	.
(8aL	.
8g#	.
=427	=427
8aL	.
8b	.
8cc#	[
8a)	.
4g# 4b	p
=428	=428
4g# 4b	.
4g# 4b	.
4f# 4b	.
=429	=429
4f# 4b	.
4f# 4b	.
4g# 4b	.
=430	=430
4g# 4b	.
4g# 4b	.
4d# 4b	.
=431	=431
4f# 4b	.
4f# 4b	.
4g# 4b	.
=432	=432
4g# 4b	.
4g# 4b	.
4f# 4b	.
=433	=433
4f# 4b	.
4f# 4b	.
4g# 4b	.
=434	=434
4g# 4b	.
4g# 4b	.
4d# 4b	.
=435	=435
4f# 4b	.
4f# 4b	.
4g#	.
=436	=436
4g#	.
4g#	.
(8ff#L	.
8ee#	.
=437	=437
8ff#L	.
8gg#	.
8aa	.
8ff#)	.
4r	.
=438	=438
4r	.
4r	.
(8eeL	.
8dd#	.
=439	=439
8eeL	.
8ff#	.
8gg#	.
8ee)	.
4r	.
=440	=440
4r	.
4a	.
4a	.
=441	=441
4b	.
4b	.
4c# 4e	.
=442	=442
4B 4e	.
4B 4e	.
4A 4f#	.
=443	=443
4G#	.
4B	.
4c#	<
=444	=444
4cc#	.
4cc#	.
4f#	.
=445	=445
4f#	.
4f#	.
4B	.
=446	=446
4b	.
4b	.
4e	p
=447	=447
4e 4ee	.
4e 4ee	.
4a 4ee	.
=448	=448
4a 4ee	.
4a 4ee	.
4g# 4ee	.
=449	=449
4g# 4ee	.
4g# 4ee	.
4a 4ee	.
=450	=450
4a 4ee	.
4a 4ee	.
4g# 4ee	.
=451	=451
4g# 4ee	.
4g# 4ee	.
4a 4ee	.
=452	=452
4a 4ee	.
4a 4ee	.
4g# 4ee	.
=453	=453
4g# 4ee	.
4g# 4ee	.
4a 4ee	.
=454	=454
4a 4ee	.
4a 4ee	.
4g# 4ee	.
=455	=455
4g# 4ee	.
4g# 4ee	.
4r	.
=456	=456
4r	.
4r	.
(8f#L	.
8e	.
=457	=457
8f#L	.
8e	.
8d	.
8f#)	.
(8eeL	.
8dd#	.
=458	=458
8eeL	.
8dd	.
8cc#	.
8b)	.
(8eeL	.
8dd	.
=459	=459
8eeL	.
8dd	.
8cc#	.
8ee)	.
4a	.
=460	=460
!LO:TX:t=cresc.	!
4a	.
4f# 4a	.
4f# 4a	.
=461	=461
4e 4a	p
4e 4a	.
4f# 4a	.
=462	=462
4a	.
4A	.
4G#	.
=463	=463
4c#	.
4c#	.
!LO:TX:t=cresc.	!
4c# 4f#	<
=464	=464
4c# 4f#	.
4c# 4f#	.
4f#	.
=465	=465
4f#	.
4f#	.
4e	.
=466	=466
4B 4e	.
4B 4e	.
4e	.
=467	=467
4e	.
4e	.
4d	.
=468	=468
4d	.
4d	.
4f#	.
=469	=469
4e	.
4e	.
4f#	.
=470	=470
4e	.
4e	.
4e	.
=471	=471
4e	.
4e	.
4a	f
=472	=472
4a	.
4a	.
4f# 4a	p
=473	=473
4e 4a	.
4e 4a	.
4f# 4a	.
=474	=474
4e 4a	.
4e	.
4e	.
=475	=475
4c# 4e	.
4r	.
4r	.
=476	=476
2.r	.
=477	=477
2.r	.
=478	=478
2.r	.
=479	=479
2.r	.
=480	=480
2.r	.
=481	=481
2.r	.
=482	=482
2.r	.
=483	=483
4r	.
4c#	f
4c#	.
=484	=484
2.c#	sf
=485	=485
2.d#	sf
=486	=486
4a	.
4g#	.
4f#	.
=487	=487
4g#	.
4g#	.
4g#	.
=488||	=488||
*M2/2	*
2b#	.
2B#	.
=489	=489
2c#	.
2cc#	.
=490	=490
4a	.
4f#	.
4g#	.
4G#	.
=491	=491
4c#	.
4cc#	.
4A	p
(8a	.
8cc#	.
=492||	=492||
*M3/4	*
8eeL	.
8aa	.
8ccc#	.
8eee)	.
(8eeL	.
8aa	.
=493	=493
8eeL	.
8ccc#	.
8ee	.
8ccc#)	.
(8eeL	.
8aa	.
=494	=494
!LO:TX:t=cresc.	!
8eeL	<
8ccc#	.
8ee	.
8aa)	.
(8cc#L	.
8aa	.
=495	=495
8ddL	.
8aa	.
8cc#	.
8aa	.
8b	.
8aa)	.
=496	=496
(8cc#L	.
8aa	.
8b	.
8aa	.
8a	.
8aa)	.
=497	=497
(8bL	.
8aa	.
8a	.
8aa	.
8b	.
8aa	.
=498	=498
8bL	.
8aa	.
8a	.
8aa	.
8dd	.
8cc#)	.
=499	=499
(8ddL	.
8aa	.
8cc#	.
8aa	.
8b)	.
8aa	.
=500	=500
(8cc#L	.
8aa	.
8b	.
8aa	.
8a	.
8aa)	.
=501	=501
(8bL	.
8aa	.
8a	.
8aa)	.
(8ff#L	.
8dd	.
=502	=502
8eeL	.
8aa	.
8ccc#	.
8eee)	.
(8aL	.
8aa	.
=503	=503
8bL	.
8aa	.
8a	.
8aa)	.
(8ff#L	.
8dd	.
=504	=504
8cc#L	.
8ee	.
8aa	[
8ccc#)	.
!LO:TX:t=dim.	!
(8aL	>
8aa	.
=505	=505
8bL	.
8aa	.
8a	.
8aa)	.
(8ff#L	.
8dd	]
=506	=506
8eeL	p
8aa	.
8ccc#	.
8eee)	.
(8AL	.
8c#	.
=507	=507
!LO:TX:t=piu p	!
8eL	.
8a	.
8cc#	.
8ee)	.
[4cc# [4ee	pp
=508	=508
2.cc# 2.ee	.
=509	=509
2.r	.
==510	==510
*k[]	*
*C:	*
*M4/4	*
!LO:TX:a:B:t=Molto Adagio	!
2r	.
=511	=511
(4c	.
!LO:TX:t=sotto voce	!
4a	.
4G) 4e	.
(4c	.
=512	=512
4e	.
4f)	.
2A	.
=513	=513
2c	.
2c	.
=514	=514
2A	.
2c	.
=515	=515
!LO:TX:t=cresc.	!
(2c	.
4B	.
4e)	.
=516	=516
2A	p
2r	.
=517	=517
(4a	.
[4d	.
4d	.
4G)	.
=518	=518
(4G 4g	.
4B)	.
2c	.
=519	=519
2c	.
2c 2g	.
=520	=520
2c	.
2c	.
=521	=521
(4c	.
4f	.
4G	.
4B)	.
=522	=522
2c	p
2r	.
=523	=523
2r	.
(4B	.
4G	.
=524	=524
4B	.
4c)	.
2c	.
=525	=525
!LO:TX:t=cresc.	!
2e	<
2e	.
=526	=526
2G 2e	.
2c	.
=527	=527
2f	.
2c 2e	.
=528	=528
2B 2d	f
2r	[
=529	=529
(4g	p
4c	.
4d	.
4e	.
=530	=530
4f	.
4c)	.
2c	.
=531	=531
!LO:TX:t=cresc.	!
2c	.
2B	.
=532	=532
2c	.
2c	.
=533	=533
(2B	.
4G	>
4c)	.
=534	=534
2A	p
2r	.
=535	=535
(4c	.
4a	.
4cc)	.
!LO:TX:t=cresc.	!
(4A	.
=536	=536
4G	.
4f)	.
2f	p
=537	=537
2f	.
2B	.
=538	=538
2c	.
2A	.
=539	=539
2A	p
2B	.
=540	=540
!LO:TX:t=cresc.	!
(4c#	.
4a	.
4a	.
4a)	.
=541||	=541||
*k[f#c#]	*
*D:	*
*M3/8	*
8ddJ	f
8dJ	.
!LO:TX:t=ten.	!
8ff#L	sf
=542	=542
16r	.
16ee	p
32r	.
(32a	.
32dd	.
32cc#	.
32b	.
32a	.
32b	.
32cc#)	.
=543	=543
8ddL	f
8d	.
!LO:TX:t=ten.	!
8dd	.
=544	=544
16r	.
16cc#	p
32r	.
(32f#	.
32b	.
32a	.
32g	.
32f#	.
32g	.
32a)	.
=545	=545
8dJ	f
8ddL	.
8r	.
=546	=546
8aL	p
8aa	.
8r	.
=547	=547
16r	.
!LO:TX:t=cresc.	!
(16dd	<
16a	.
16ee	.
16a	.
16dd)	.
=548	=548
(16cc#LL	.
16c#	.
16d	.
16e	.
16c#	.
16e)	[
=549	=549
8f#J 8dd	f
8dJ	.
!LO:TX:t=ten.	!
8ff#L	.
=550	=550
16r	.
16ee	p
32r	.
(32a	.
32dd	.
32cc#	.
32b	.
32a	.
32b	.
32cc#)	.
=551	=551
8ddJ	f
8dJ	.
!LO:TX:t=ten.	!
8dddL	.
=552	=552
16r	.
16ccc#	p
32r	.
(32ff#	.
32bb	.
32aa	.
32gg	.
32ff#	.
32gg)	.
32aa	.
=553	=553
8bL	f
8bb	.
8r	.
=554	=554
8aL	p
8aa	.
8r	.
=555	=555
!LO:TX:t=cresc.	!
16r	<
qqcc#	.
16dd	.
16r	.
qqgg#	.
16aa	.
16r	.
qqg#	.
16a	.
=556	=556
16r	.
qqg#	[
16a	.
16r	>
qqd#	.
16e	.
16r	.
qqdd#	.
16ee	.
=557	=557
(8eeL	p
8a	.
8gT)	.
=558	=558
4f#	.
8r	.
=559	=559
(8eeL	.
16a)	.
16a	.
8gTJ	.
=560	=560
(16f#LL	.
16dd	.
16cc#	.
[16aa)	.
32aaLLL	.
(32d	.
32e	.
32f#)	.
=561	=561
16r	.
32G 32b	pp
32G 32b	.
16r	.
32G 32b	.
32G 32b	.
16r	.
32G 32b	.
32G 32b	.
=562	=562
16r	.
32g 32a	.
32g 32a	.
16r	.
32g 32a	.
32g 32a	.
16r	.
32g 32a	.
32g 32a	.
=563	=563
16r	.
!LO:TX:t=cresc.	!
32g 32a	<
32g 32a	.
16r	.
32g 32a	.
32g 32a	.
16r	.
32g 32a	.
32g 32a	.
=564	=564
16r	.
32g 32a	.
32g 32a	.
16r	.
32g 32a	.
32g 32a	.
16r	.
32c# 32e	.
32b	[
=565	=565
(8bL	rfz
*^	*
8d) 8f#	8r	.
[8f#J	[8A	.
=566	=566	=566
8f#L	8AL	.
[8a	[8A	.
(32a	32AJJJ	.
*v	*v	*
32dd	>
32cc#	.
32dd)	.
=567	=567
(8eeL	p
16a)	.
16a	.
8gTJ	.
=568	=568
4f#	.
8r	.
=569	=569
32eeLLL	.
(32ee	.
32ff#	.
32ee)	.
32aLLL	.
(32a	.
32b	.
32a)	.
8gTJ	.
=570	=570
16f#LL	.
16ff#	.
16cc#	.
[16aa	.
32aaLLL	.
32a	.
32g	.
32f#	.
=571	=571
32GLLL 32g	pp
32G 32g	.
16r	.
32G 32b	.
32G 32b	.
16r	.
32G 32b	.
32G 32b	.
16r	.
=572	=572
32gLLL 32a	.
32g 32a	.
16r	.
32g 32a	.
32g 32a	.
16r	.
32g 32a	.
32g 32a	.
16r	.
=573	=573
!LO:TX:t=cresc.	!
32eLLL 32ee	<
32e 32ee	.
16r	.
32e 32ee	.
32e 32ee	.
16r	.
32e 32ee	.
32e 32ee	.
16r	.
=574	=574
32eLLL 32ee	.
32e 32ee	.
16r	.
32e 32ee	.
32e 32ee	.
16r	.
32e 32cc#	.
32e 32cc#	.
32c#LLL 32e	.
32c# 32e	[
=575	=575
(8bL	rfz
*^	*
8d) 8f#	8r	.
[8f#	8A	.
=576	=576	=576
8f#L	8AL	.
[8a	[8A	.
(32aLLL	32AJJJ	.
*v	*v	*
32dd	>
32g	.
32f#)	]
=577	=577
(8f#L	p
8dd	.
8d)	.
=578	=578
8r	.
(8d	.
8g)	.
=579	=579
8r	.
(8d	.
8f#)	.
=580	=580
8r	.
(8d	.
8b)	.
=581	=581
16r	<
(16cc#	.
16dd	.
16cc#	[
16dd	>
16cc)	.
=582	=582
(16ccLL	]
16a#	.
16b	.
16cc	.
16dd	.
16b)	.
=583	=583
(16bLL	.
16g#	.
16a	.
16cc#	.
16dd)	.
[16a	.
=584	=584
(16aLL	.
16f#	.
16g	.
16cc#	.
16dd	.
16g)	.
=585	=585
!LO:TX:t=cresc.	!
(16gLL	<
16f#	.
16dd	.
16a#	.
16cc#	.
16b)	.
=586	=586
(16ddLL	.
16f#)	.
(16f#	[
16A	>
16g	.
16A)	]
=587	=587
32f#LLL	p
(32dd	.
32ff#	.
32ee	.
!LO:TX:t=cresc.	!
32ddLLL	<
32cc#	.
32b	.
32a	.
32gLLL	.
32ee	.
32cc#	.
32g	.
=588	=588
32f#LLL	.
32dd	.
32a	.
32f#	.
32fLLL	.
32dd	.
32b	[
32f	.
32eLLL	>
32cc#	.
32g)	.
32e	.
=589	=589
8f#L	p
!LO:TX:t=cresc.	!
[4d [4dd	<
=590	=590
8dL 8dd	.
(8d 8dd	.
8e) [8ee	>
=591	=591
(16eeLL	p
16ff#)	.
!LO:TX:t=piu p	!
8ddL	.
(8dd	.
=592	=592
8ddL)	.
8r	.
(8cc	pp
=593	=593
8ccL)	.
8r	.
8cc	.
=594||	=594||
*M4/4	*
!LO:TX:a:B:t=Molto Adagio	!
4r	.
4cc	.
(4c	.
4a	.
=595	=595
*k[]	*
*C:	*
8r	.
8g	.
4.cc)	.
(8cc	.
4f	.
=596	=596
4g	.
[4f	.
4f)	.
[4cc	.
=597	=597
4cc	.
2cc	.
[4g	.
=598	=598
4g	.
4f	.
4g	.
[4cc	.
=599	=599
!LO:TX:t=cresc.	!
4cc	<
2ff	.
[4ee	.
=600	=600
(4ee	p
4dd)	.
(4aa	.
4dd)	.
=601	=601
8r	.
(8ee	.
4.ff)	.
(8gg	.
4ff)	.
=602	=602
4ee	.
4B [4g	.
!LO:TX:t=cresc.	!
4c 4g	<
[4g	.
=603	=603
4g	.
(4f	.
4g	.
[4gg)	.
=604	=604
(4gg	.
[4ff	.
4ff	.
[4ee)	.
=605	=605
(4ee	.
8dd	[
[8cc)	.
(4cc	>
[4b)	.
=606	=606
(4b	p
[4cc)	.
(8ccL	.
8dd)	.
[4ee	.
=607	=607
(8eeL	.
8ff	.
4gg)	.
(4g	.
4c	.
=608	=608
8r	.
8d	.
4e)	.
(8eeL	.
8dd)	.
[4cc	.
=609	=609
!LO:TX:t=cresc.	!
(4cc	<
2aa	.
[4gg)	.
=610	=610
4gg	.
(2gg	.
4ff)	.
=611	=611
4g	.
2g	.
[4g	.
=612	=612
4g	f
4b	[
(4gg	p
4cc	.
=613	=613
8r	.
8dd	.
4.ee	.
8ff	.
4ee)	.
=614	=614
(4b	.
4cc)	.
[2c	.
=615	=615
!LO:TX:t=cresc.	!
4c	<
(2f	.
4b	.
=616	=616
4cc	.
[4ee	.
4ee	.
4ff)	.
=617	=617
4f	.
[4d	.
(4d	[
[4c)	.
=618	=618
(4c	p
4a)	.
(4cc	.
4aa	.
=619	=619
8r	.
8ee	.
4.ff	.
8ee	.
4dd	.
=620	=620
4cc	.
4b)	.
(4f	.
[4cc)	.
=621	=621
!LO:TX:t=cresc.	!
(4cc	<
4ff	.
4ff	.
4b	.
=622	=622
4cc	.
[4ee	.
4ee	.
[4ff)	.
=623	=623
(4ff	p
[4dd	.
4dd	.
4b)	.
=624	=624
!LO:TX:t=cresc.	!
(4.a	.
8e	.
4ee	.
4gg)	.
=625||	=625||
*k[f#c#]	*
*D:	*
*M3/8	*
8dL 8a 8ff#	f
8ff#	.
8r	.
=626	=626
8aL	p
8aa	.
8r	.
=627	=627
8dL	f
8dd 8ff#	.
8r	.
=628	=628
8f#L	p
8ff#	.
8r	.
=629	=629
8BL	f
8d 8dd	.
8r	.
=630	=630
8dL	p
8dd	.
8r	.
=631	=631
!LO:TX:t=cresc.	!
32r	<
32A	.
32c#	.
32d	.
32eLLL	.
32f#	.
32g	.
32a	.
32aLLL	.
32b	.
32cc#	.
32dd	.
=632	=632
32cc#LLL	.
32ee	.
32dd	.
32cc#	[
32ddLLL	.
32b	.
32ee	.
32dd	.
32cc#LLL	.
32ee	.
32aa	.
32ccc#	.
=633	=633
8dddJ	f
8eJ	.
8ff#L	.
=634	=634
16r	.
16ee	p
32r	.
(32a	.
32dd	.
32cc#	.
32bLLL	.
32a	.
32bb	.
32ccc#)	.
=635	=635
8dddJ	f
8dJ	.
8dddL	.
=636	=636
16r	.
16ccc#	p
32r	.
(32ff#	.
32bb	.
32aa	.
32ggLLL	.
32ff#	.
32gg	.
32aa)	.
=637	=637
32dLLL	f
32dd	.
32ee	.
32ff#	.
32ggLLL	.
32aa	.
32bb	.
32ccc#	.
32dddLLL	.
32ddd	.
32ddd	.
32ddd	.
=638	=638
8dddL	p
8dd	.
[8g	.
=639	=639
!LO:TX:t=cresc.	!
(8gL	<
[4a)	.
=640	=640
(16aLL	.
16cc#)	.
(8ddL	[
16cc#	.
16dd)	.
=641	=641
(8eeL	p
8a	.
8gT)	.
=642	=642
4f#	.
8r	.
=643	=643
(8eeL	.
16a)	.
16a	.
8gTJ	.
=644	=644
(16f#LL	.
8a)	.
[16aa	.
(32aaLLL	.
32a	.
32g	.
32f#)	.
=645	=645
32GLLL 32g	pp
32G 32g	.
16r	.
32G 32b	.
32G 32b	.
16r	.
32G 32b	.
32G 32b	.
16r	.
=646	=646
32gLLL 32a	.
32g 32a	.
16r	.
32g 32a	.
32g 32a	.
16r	.
32g 32a	.
32g 32a	.
16r	.
=647	=647
!LO:TX:t=cresc.	!
32eLLL 32ee	<
32e 32ee	.
16r	.
32e 32ee	.
32e 32ee	.
16r	.
32e 32ee	.
32e 32ee	.
16r	.
=648	=648
32eLLL 32ee	.
32e 32ee	.
16r	.
32e 32ee	.
32e 32ee	.
16r	.
32e 32ee	.
32e 32ee	.
32c# 32e	.
32c# 32e	[
=649	=649
(8bL	sf
8d) 8f#	.
[8A [8f#	.
=650	=650
8AL 8f#	.
([8g	>
32g	.
32f#	.
32ee	.
32dd)	]
=651	=651
16cc#LL	p
16ccc#	.
16ddd	.
16dd	.
16ee	.
16eee	.
=652	=652
32dddLLL	.
(32ddd	.
32eee	.
32ddd)	.
32ggLLL	.
(32gg	.
32aa	.
32gg)	.
8ff#tJ	.
=653	=653
16eeLL	.
16ccc#	.
16ddd	.
16dd	.
16ee	.
16eee	.
=654	=654
(48ccc#LLL	.
48ddd	.
48eee	.
48ddd	.
48ccc#	.
48ddd)	.
(48ff#LLL	.
48gg	.
48aa	.
48gg	.
48ff#)	.
48gg	.
(48ff#LLL	.
48gg	.
48ee	.
48ff#	.
48gg	.
48aa)	.
=655	=655
(32aa#LLL	pp
32b)	.
32aa#LLL	.
(64ccc#	.
64bb)	.
32r	.
32g 32b	.
32g 32b	.
32r	.
32r	.
32g 32b	.
32g 32b	.
32r	.
=656	=656
32r	.
32g 32a	.
32g 32a	.
32r	.
32r	.
32g 32a	.
32g 32a	.
32r	.
32r	.
32g 32a	.
32g 32a	.
32r	.
=657	=657
!LO:TX:t=cresc.	!
32r	<
32g 32ee	.
32g 32ee	.
32r	.
32r	.
32g 32ee	.
32g 32ee	.
32r	.
32r	.
32g 32ee	.
32g 32ee	.
32r	.
=658	=658
32gLLL 32ee	.
32cc# 32ee	.
32cc# 32ee	.
32r	.
32r	.
32cc# 32ee	.
32cc# 32ee	.
32r	.
32r	.
32cc# 32ee	.
32cc# 32ee	.
32cc# 32ee	.
=659	=659
(16eeLL	sf
16dd)	.
(16ddLL	.
16f#)	.
(16f#LL	.
16d)	.
=660	=660
(16dLL	.
16A)	.
[8AJ	.
32ALLL	>
(32a	.
32g	.
32f#)	]
=661	=661
(8f#L	p
[4d)	.
=662	=662
8dJ	.
(8ddL	.
16b)	.
16r	.
=663	=663
8r	.
(8dd	.
8f#)	.
=664	=664
8r	.
(8dd	.
8b)	.
=665	=665
16r	<
(16cc#	.
16dd	.
16cc#	[
16dd	>
16cc)	]
=666	=666
(16ccLL	.
16a#	.
16b	.
16cc	.
16dd	.
16b)	.
=667	=667
(16bLL	.
16g#	.
16a	.
32cc#)	.
32dd	.
(16dd	.
[16a)	.
=668	=668
(16aLL	.
16f#	.
16gLL	.
32cc#	.
32dd)	.
(16ddLL	.
16g)	.
=669	=669
!LO:TX:t=cresc.	!
(16gLL	<
32e#	.
32f#	.
16ddLL	.
16a#	.
16dd	.
16b)	.
=670	=670
16ddLL	.
16f#	.
16f#LL	.
16A	.
16g	>
16A	]
=671	=671
32ALLL	p
(32dd	.
32ff#	.
32ee	.
!LO:TX:t=cresc.	!
32ddLLL	<
32cc#	.
32b	.
32a	.
32gLLL	.
32ee	.
32cc#	.
32g	.
=672	=672
32f#LLL	.
32dd	.
32a	.
32f#	.
32fLLL	.
32dd	.
32b	.
32f	[
32eLLL	>
32cc#	.
32g	.
32e)	.
=673	=673
(8f#L	p
!LO:TX:t=cresc.	!
8ff#	<
8gg	.
=674	=674
8aaL	.
8bb	.
[8ccc#)	>
=675	=675
(16ccc#LL	p
16ddd)	.
!LO:TX:t=piu p	!
8ddL	.
(8dd	.
=676	=676
8ddL)	.
8r	.
(8cc	pp
=677	=677
8ccL)	.
8r	.
8cc	.
=678||	=678||
*k[]	*
*C:	*
*M4/4	*
!LO:TX:a:B:t=Molto adagio	!
4r	.
4.cc	<
(8c	>
!LO:TX:t=Mit innigster Empfindung	!
[4a)	]
=679	=679
(16aLL	.
16g)	.
[8cc	.
(16ccLL	.
16dd)	.
[8cc	.
(8ccL	.
8e	.
4f)	.
=680	=680
(4g	.
8A) 8f	.
[8ff	.
2ff	<
=681	=681
2ff	p
2ee	.
=682	=682
2dd	.
2ee	<
=683	=683
8r	[
(8g	p
[4ee)	.
(16eeLL	.
16dd)	.
[8gg	.
(16ggLL	.
16aa)	.
[8gg	.
=684	=684
(8ggL	.
8cc	.
8dd	.
[8ee)	.
(16eeLL	.
16cc)	.
[8dd	.
(16ddLL	.
16ee)	.
8dd	.
=685	=685
(4cc	p
2c)	.
[4cc	.
=686	=686
(4cc	.
2c)	.
[4c	<
=687	=687
!LO:TX:t=  cresc.	!
(16cLL	<
16B)	.
[8c	.
(16cLL	.
16d)	.
8c	.
2gg	.
=688	=688
2gg	.
2ff	.
=689	=689
2ee	.
[2dd	.
=690	=690
!LO:TX:t=dim.	!
(16ddLL	<
16b)	.
[8cc	.
(16ccLL	.
16dd)	.
8cc	.
[2a	.
=691	=691
!LO:TX:t=p piu p	!
(16aLL	[
16c#)	.
[8d	.
(16dLL	.
16e)	.
[8d	.
4d	.
4c#	.
=692	=692
2d	pp
2r	.
=693	=693
2r	.
8r	.
(8cc	.
[4aa)	.
=694	=694
(16aaLL	.
16gg)	.
[8ccc	.
(16cccLL	.
16ddd)	.
[8ccc	.
(8cccL	.
8ee	.
8ff	.
8a)	.
=695	=695
2aa	p
2gg	.
=696	=696
2ff	.
(8ggL	.
8cc	.
[4gg)	.
=697	=697
(16ggLL	.
16ee)	.
[8ff	.
(16ffLL	.
16gg)	.
[8ff	.
!LO:TX:t=cresc.	!
(16ffLL	<
16ee)	.
[8ff	.
(16ffLL	.
16gg)	.
8ff	.
=698	=698
4a 4ff	.
4f	.
(16cLL	.
16b)	.
[8cc	.
(16ccLL	.
16dd)	.
[8cc	.
=699	=699
16ccLL	f
16cc	.
[8dd	.
(16ddLL	.
16ee)	.
[8dd	.
16ddLL	.
16dd	.
[8ee	.
(16eeLL	.
16ff)	.
[8ee	.
=700	=700
(16eeLL	.
16dd)	.
[8ee	sf
(16eeLL	.
16ff)	.
8ee	.
(16ddLL	sf
16ee)	.
[8dd	.
(16ddLL	.
16ee)	.
8dd	.
=701	=701
2c 2a	sf
2b	sf
=702	=702
2e 2cc	sf
2b	sf
=703	=703
2e 2cc	sf
2f	sf
=704	=704
2r	.
!LO:TX:t=dim.	!
8r	.
(8B	>
8c	.
8d)	.
=705	=705
8r	.
(8c	.
8d	.
8e)	.
(8cL	.
[8cc)	.
(16ccLL	.
16ee)	.
[8ff	]
=706	=706
(8ffL	p
8ee	.
8dd	.
[8cc)	.
(16ccLL	.
16a)	.
[8b	.
(16bLL	.
16cc)	.
[8dd	.
=707	=707
(16ddLL	.
16cc)	.
[8b	.
(16bLL	.
16a)	.
8g	.
2cc	<
=708	=708
2cc	p
2b	>
=709	=709
2r	]
2ccc	.
=710	=710
2ccc	.
!LO:TX:t=cresc.	!
4bb	.
4b 4ff	.
=711	=711
2.b 2.ff	sf
4g 4ee	>
=712	=712
8r	]
(8c	p
[4a)	.
(16aLL	.
16g)	.
[8cc	.
(16ccLL	.
16dd)	.
[8cc	.
=713	=713
(8ccL	.
8f	.
8g	.
[8a)	.
(16aLL	.
16f)	.
[8g	.
(16gLL	.
16a)	.
8g	.
=714	=714
(4a	.
2cc)	.
4cc	.
=715	=715
(2ff	.
2ee)	.
=716	=716
(8aL	.
8dd	.
8cc	.
8ff)	.
2gg	.
=717	=717
2ff	.
[2gg	.
=718	=718
!LO:TX:t=cresc.	!
4gg	<
(4ccc	.
4ccc	.
4ccc)	.
=719	=719
2a 2ccc	p
2cc	.
=720	=720
!LO:TX:t=piu p	!
[4ccc	.
(8ccc	.
8ccc)	.
[4a [4aa	.
(8a 8aa	.
8a) 8aa	.
=721	=721
2cc 2aa	pp
2r	.
=722	=722
*k[f#c#g#]	*
*A:	*
!LO:TX:a:B:t=Alla Marcia, assai vivace	!
4r	.
8.c#L	f
16e	.
(8.aL	>
16e)	]
8g#	p
16r	.
16c# 16a	.
=723	=723
8BL	.
8r	.
8A	.
8r	.
2r	.
=724	=724
4r	.
8.AL	f
16c#	.
(8.eL	>
16c#)	]
8aL	p
16r	.
16f#	.
=725	=725
8c#L 8a	.
8r	.
8g#	.
8r	.
4r	.
(16eLL	.
16g#	.
16cc#	.
16g#)	.
=726	=726
4b	.
8.G#L	.
16B	.
4e	.
4G#	.
=727	=727
4r	.
8.c#	.
16e	.
4a	.
4c# 4a	.
=728	=728
(16aLL	.
16g#	.
16a	.
16g#	.
16aLL	.
16g#	.
16a	.
16g#)	.
!LO:TX:t=cresc.	!
(8bL	<
8a)	.
8a	.
16r	.
16a	[
=729	=729
8g#L	f
8r	.
8a 8b	.
8r	.
8g#L 8b	.
8r	.
4r	.
=730:|!|:	=730:|!|:
!LO:TX:t=dol.	!
(4.B	.
8A	.
8G#L	.
8e	.
8d#)	.
16r	.
16c#	.
=731	=731
8BL	.
8r	.
8d#	.
8r	.
8eL	.
8r	.
4r	.
=732	=732
!LO:TX:t=cresc.	!
(4.cc#	<
8b	.
8aL	.
8ff#	.
8ee)	.
16r	.
16dd	.
=733	=733
8cc#L	.
8r	.
8ee	.
8r	.
8eeL	.
8r	.
8ee	.
8r	[
=734	=734
4dd 4ff#	f
4r	.
2r	.
=735	=735
4r	.
8.f#L	.
16a	.
2e 2dd	sf
=736	=736
4e 4cc#	f
8.eeL	sf
16cc#	.
(8.aL	.
16cc#)	.
8eL	.
16r	.
16e	.
=737	=737
8eL 8b	.
8r	.
8e 8a	.
8r	.
2r	.
=738	=738
8.eL	.
16a	.
8.cc#	sf
16ee	.
(8.aL	.
16e)	.
8aL	.
16r	.
16a 16aa	.
=739	=739
8cc#L 8aa	.
8r	.
8b 8gg#	.
8r	.
4r	.
8.aL	p
16a	.
=740	=740
(4.a	.
8f#	.
8eL	.
8d#	.
8f#)	.
16r	.
16b	.
=741	=741
(4.b	.
8g#	.
8f#L	.
8e)	.
(16g#LL	.
16b	.
16dd	.
16g#)	.
=742	=742
2.g# 2.b	.
4e 4b	.
=743	=743
[2e [2cc#	.
(8eL 8cc#	.
8c#	.
8dL)	.
16r	.
16ff#	.
=744	=744
(16ddLL	.
16cc#	.
16dd	.
16cc#	.
16ddLL	.
16cc#	.
16dd	.
16cc#)	.
!LO:TX:t=cresc.	!
(8eeL	<
8dd)	.
8dd	.
16r	.
16dd	[
=745	=745
8cc#L	f
8r	.
8B 8d	.
8r	.
8c#L	.
8r	.
4r	.
=746:|!	=746:|!
*k[]	*
*C:	*
!LO:TX:a:B:t=Piu Allegro	!
1r	.
=747	=747
8ccL	f
8r	.
8ee	.
8r	.
8ffL	.
8r	.
8aa	.
8r	.
=748	=748
2c 2g	p
2c 2g	.
=749	=749
2c 2g	.
2c 2g	.
=750	=750
4c 4g	.
!LO:TX:t=cresc.	!
2G 2g	<
4G 4g	.
=751	=751
4G 4g	p
!LO:TX:B:t=Rit.	!
4r	.
2r	.
=752	=752
!LO:TX:a:B:t=A tempo	!
8aL	f
8r	.
8cc#	.
8r	.
8ddL	.
8r	.
8ff	.
8r	.
=753	=753
16eeLL	fp
16e	.
16e	.
16e	.
4e	.
2e	.
=754	=754
2e	.
2e	.
=755	=755
2e	.
2B- 2g	.
=756	=756
!LO:TX:t=cresc.	!
2B- 2g	<
2c# 2g	.
=757	=757
4c# 4g	p
4r	.
!LO:TX:B:t=Rit.	!
2r	.
=758	=758
!LO:TX:B:t=Accel.	!
4r	.
4f	pp
4dd	.
4r	.
=759	=759
4r	.
!LO:TX:t=cresc.	!
4cc#	<
4gg	.
4r	.
=760	=760
4r	.
4dd	.
4aa	.
4dd 4ddd	ff
=761||	=761||
*M2/2	*
8ddL 8ddd	.
!LO:TX:a:B:t=Presto	!
8r	.
4r	.
2r	.
=762	=762
1r	.
=763	=763
1r	.
=764	=764
1r	.
=765	=765
4r	.
4ff	>
4f	.
4f#	]
=766	=766
4r	.
4a	p
4r	.
4g#	.
=767	=767
!LO:TX:a:B:t=poco Adagio	!
2r	.
4r	.
8r	.
8r	.
=768||	=768||
*M3/4	*
8r	.
(8f	p
2e)	]
=769	=769
8r	.
(8f	<
2e)	[
=770	=770
!LO:TX:t=espressivo	!
8r	.
(8f	<
2e)	[
=771	=771
8r	.
(8f	<
2e)	[
=772	=772
8r	.
!LO:TX:t=cresc.	!
(8f	<
2e)	.
=773	=773
8r	.
(8f	.
2e)	.
=774	=774
8r	.
(8f	.
2c) 2e	.
=775	=775
8r	[
(8f	>
2c) 2f	.
=776	=776
8r	]
(8f	p
2G) 2g	.
=777	=777
8r	.
(8a	<
4g	.
8fL	>
8e)	]
=778	=778
8cJ 8e	p
(8ffL	.
2cc) 2ee	.
=779	=779
8r	.
!LO:TX:t=cresc.	!
(8ff	<
2dd) 2ee	.
=780	=780
8r	.
(8ff	.
2cc) 2ee	.
=781	=781
8r	.
(8cc	.
2b)	.
=782	=782
8r	.
(8cc	.
2b-)	.
=783	=783
8r	[
(8b-	>
2a)	]
=784	=784
8r	.
(8a	p
2g)	.
=785	=785
8r	.
(8a	<
4g	.
8gL	>
8f)	]
=786	=786
8r	.
(8g	.
2f)	.
=787	=787
8r	.
!LO:TX:t=cresc.	!
(8ff	<
2ee)	.
=788	=788
8r	.
(8a	.
2g)	.
=789	=789
8r	.
(8cc	.
[4b)	.
8bL	.
8ff)	.
=790	=790
8r	.
(8ff	.
2ee)	.
=791	=791
8r	[
(8ff	rfz
2ee)	.
=792	=792
8r	.
(8a	>
2g#)	]
=793	=793
8r	.
(8b	p
8aL	.
8e	.
8g	.
8f)	.
=794	=794
8fL	.
(8ee	.
2f) 2dd	.
=795	=795
8r	.
!LO:TX:t=cresc.	!
(8f	<
2e)	.
=796	=796
8r	.
(8a	.
2B) 2g	.
=797	=797
8r	.
(8g	.
4f#	.
8ff#L	.
8ff	.
=798	=798
8eeL)	.
(8ff	.
2ee)	.
=799	=799
*^	*
8r	4r	[
(8f	.	.
2e)	(4B	rfz
.	4c)	.
*v	*v	*
=800	=800
8r	.
(8a	>
2B) 2g#	]
=801	=801
8cJ	p
(8d#L	f
8e)	.
(8d#L	.
8e)	.
8eJ	.
=802	=802
[2.e	>
=803	=803
8eJ	p
(8d#L	f
8e)	.
(8d#L	.
8e)	.
8eJ	.
=804	=804
[2.e	.
=805	=805
8eJ	p
(8d#L	f
8e)	.
(8d#L	.
8e)	.
8eJ	.
=806	=806
2.e	f
=807	=807
8eL	f
8r	.
8eeL	.
8r	.
8ccL 8ee	.
8r	.
=808	=808
8ffL	.
8r	.
8aL	.
8r	.
8g#	.
8r	.
=809	=809
8ccJ 8ee	.
(8ffL	f
8ee)	.
(8ffL	.
8ee)	.
8eeJ	.
=810	=810
[2.ee	>
=811	=811
8eeJ	p
(8ffL	f
8ee)	.
(8ffL	.
8ee)	.
8bJ	.
=812	=812
[2.ee	>
=813	=813
8eeJ	p
(8cL	f
8B)	.
(8cL	.
8B)	.
8cJ	.
=814	=814
8BL	sf
(8ffL	.
8ee)	.
(8ffL	.
8ee)	.
8eeJ	.
=815	=815
8eeL	.
8r	.
8ff#L	.
8r	.
8bL 8gg	.
8r	.
=816	=816
8ggL	.
8r	.
8ggL	.
8r	.
8aL 8ff#	.
8r	.
=817	=817
8bL 8gg	.
8r	.
8BL	p
8r	.
8cL	.
8r	.
=818	=818
8dL	.
8r	.
8cL	.
8r	.
8BL	.
8r	.
=819	=819
8BL	.
(8dd	.
8ee	.
8cc#	.
8ddL)	.
8r	.
=820	=820
8r	.
(8cc	.
8dd	.
8b	.
8ccL)	.
8r	.
=821	=821
8r	.
(8b	.
8cc	.
8a	.
8bL)	.
8r	.
=822	=822
8r	.
(8a	.
8b	.
8g#)	.
(8aL	.
8b	.
=823	=823
8ccL	.
8g	.
8a	.
8f#	.
8g	.
8f)	.
=824	=824
(8eL	.
8f#	.
8d	.
8e	.
8f#	.
[8g)	.
=825	=825
(8gL	<
8f#	.
8g	.
8e	.
8f#	[
8g)	.
=826	=826
2b	p
(4b	<
=827	=827
2a	.
4ee)	[
=828	=828
2dd#	>
!LO:TX:t=cresc.	!
[4ee	<
=829	=829
2ee	.
(4ee	.
=830	=830
2ff)	.
[4g [4ee	f
=831	=831
4.g 4.ee	.
8r	.
[4ee [4gg	sf
=832	=832
4.ee 4.gg	.
8r	.
[4cc [4aa	sf
=833	=833
4.cc 4.aa	.
8r	.
[4b [4bb	sf
=834	=834
4.b 4.bb	.
8r	.
4r	.
=835	=835
2.r	.
=836	=836
2.r	.
=837	=837
4r	.
(8a#L	p
8b	.
8ee	.
8gg	.
=838	=838
8aaL	.
8ccc	.
8bb	.
8aa)	.
[4ee [4gg	ff
=839	=839
4.ee 4.gg	.
8r	.
[4g [4ee	sf
=840	=840
4.g 4.ee	.
8r	.
[4cc [4ee	sf
=841	=841
4.cc 4.ee	.
8r	.
[4b [4ee	sf
=842	=842
4.b 4.ee	.
8r	.
4r	.
=843	=843
2.r	.
=844	=844
2.r	.
=845	=845
2.ff	p
=846	=846
(4dd	.
4cc)	.
(8gL	.
8c	.
=847	=847
!LO:TX:t=cresc.	!
8A#L	<
8B	.
8c#	.
8d	.
8e	.
8f)	.
=848	=848
4G	.
4g	.
4g	.
=849	=849
!LO:TX:t=dim.	!
(8cL	>
8a	.
8b	.
8a	.
8b	.
8cc	.
=850	=850
4a	.
4g#	]
4d)	p
=851	=851
!LO:TX:t=piu p	!
4c	.
[2c	.
=852	=852
(4c	.
4B	.
[4e	pp
=853	=853
4e	.
4d	.
4f	.
=854	=854
4d	.
4c	.
4e	.
=855	=855
4c	.
4B	.
[4d	.
=856	=856
4d	.
4c	.
4d)	.
=857	=857
8r	.
(8f	p
2e)	]
=858	=858
8r	.
(8f	<
2e)	[
=859	=859
8r	.
(8f	.
2e)	.
=860	=860
8r	.
(8f	.
2e)	.
=861	=861
8r	.
!LO:TX:t=cresc.	!
(8f	<
2e)	.
=862	=862
8r	.
(8f	.
2e)	.
=863	=863
8r	.
(8f	.
2e)	.
=864	=864
8r	[
(8b-	>
2a)	.
=865	=865
8r	]
(8a	p
2g)	.
=866	=866
8r	.
(8a	<
4g	.
8fL	>
8e)	]
=867	=867
8cJ 8e	.
(8ffJ	.
2cc) 2ee	.
=868	=868
8r	.
!LO:TX:t=cresc.	!
(8ff	<
2dd) 2ee	.
=869	=869
8r	.
(8ff	.
2cc) 2ee	.
=870	=870
8r	.
(8f	.
2B) 2e	.
=871	=871
8r	.
(8f	.
4B- 4e	.
4b-)	.
=872	=872
8r	[
(8b-	>
4a	.
4aa)	]
=873	=873
8r	.
(8aa	p
2gg)	.
=874	=874
8r	.
(8aa	<
4gg	.
8gL	>
8f)	]
=875	=875
8r	.
(8g	.
2f)	.
=876	=876
8r	.
!LO:TX:t=cresc.	!
(8ff	<
2ee)	.
=877	=877
8r	.
(8a	.
2g)	.
=878	=878
8r	.
(8gg	.
[4ff#)	.
(8ff#L	.
8gg#)	.
=879	=879
8aaL	.
(8ff	.
2ee)	.
=880	=880
8r	rfz
(8ff	.
2ee)	.
=881	=881
8r	.
(8a	.
2g#)	.
=882	=882
(8aL	p
8aa	.
4ee	.
8ggL	.
8ff)	.
=883	=883
8r	.
(8b-	.
2f) 2a	.
=884	=884
8r	.
!LO:TX:t=cresc.	!
(8ff	<
2ee)	.
=885	=885
8r	.
(8cc	.
2g) 2b	.
=886	=886
8r	.
(8gg	.
[4ff#	.
8ff#L	.
8ff)	.
=887	=887
8r	.
(8ff	.
2ee)	.
=888	=888
8r	[
(8f	rfz
*^	*
2e)	(4.B	.
.	8c)	.
*v	*v	*
=889	=889
8r	.
(8a	.
2B) 2g#	.
=890	=890
4c	f
8ccL	sf
8r	.
8ffL	.
8r	.
=891	=891
4cc	f
8gL 8cc	.
8r	.
8gL 8cc	.
8r	.
=892	=892
8r	.
(8bbL	.
8ccc)	.
8r	.
(8ff#L	.
8gg)	.
=893	=893
8r	.
(8bL	.
8cc)	.
8r	.
(8f#L	.
8g)	.
=894	=894
8r	.
(8BL	.
8c)	.
8r	.
(8bL	.
8cc)	.
=895	=895
(8ccL	f
8g	.
8b)	.
8r	.
8fL 8b	sf
8r	.
=896	=896
8r	.
(8eeL	.
8ff)	.
8r	.
(8a#L	.
8b)	.
=897	=897
8r	.
(8eL	.
8f)	.
8r	.
(8eeL	.
8ff)	.
=898	=898
(8ccc#L	.
8ddd)	.
8r	.
(8cc#L	.
8dd)	.
8r	.
=899	=899
!LO:TX:t=dim.	!
(8eL	>
8f	.
8e)	.
(8eeL	.
8b	.
8cc)	.
=900	=900
(8dL	.
8e	.
8d)	.
(8fL	.
8a	.
8b)	.
=901	=901
(8cL	p
8d	.
8c)	.
(8ggL	.
8ff	.
!LO:TX:t=piu p	!
8ee)	.
=902	=902
(8fL	.
8g	.
8f)	.
(8ddL	.
8a	.
8b)	.
=903	=903
(8gL	pp
8gg	.
8ff#	.
8ff	.
8gg	.
[8ee	.
=904	=904
8eeL	.
8dd	.
8cc#	.
8cc	.
8dd	.
8b	.
=905	=905
8b-L	.
8a	.
8g#	.
8g	.
8a	.
8f	.
=906	=906
8eL	.
8e-	.
8e	.
8a	.
8d	.
8g)	.
=907	=907
!LO:TX:t=cresc.	!
(8dd#L	<
8ee	.
8a	.
8dd	.
8b	.
(8cc	.
=908	=908
8fL)	.
8b	.
8e	.
8a	.
8f#	.
8g)	.
=909	=909
8cL	.
(8ff	.
8b	.
8ee	.
8cc#	.
8dd	.
=910	=910
8bL	.
8cc	.
8gg	.
8cc	.
8ff	.
8b)	.
=911	=911
4b 4ff	f
8dL 8b	.
8r	.
8dL 8b	.
8r	.
=912	=912
4r	.
8r	.
(8gL	.
8G)	.
8r	.
=913	=913
4r	.
8r	.
(8gL	.
8G)	.
8r	.
=914	=914
8r	.
(8gL	.
8f)	.
(8gL	.
8G)	.
8r	.
=915	=915
2.e 2.ee	sf
=916	=916
8eL 8ee	.
8r	.
8eeL	.
8r	.
8eeL	.
8r	.
=917	=917
8ffL	.
8r	.
8eeL	.
8r	.
8eeL	.
8r	.
=918	=918
8ccJ 8ee	.
(8ccL	.
8b)	.
(8ccL	.
8b)	.
8ccJ	.
=919	=919
(4.ff	>
8cc	.
8ee	.
8dd)	.
=920	=920
8bJ	p
(8cL	f
8B)	.
(8cL	.
8B)	.
8BJ	.
=921	=921
(4.ee	>
8b	.
8dd	.
8cc)	.
=922	=922
8ccJ	p
(8cL	f
8B)	.
4c	.
(8c	.
=923	=923
8BJ)	.
(8cL	.
8B)	.
(8cL	.
8B)	.
(8cJ	.
=924	=924
8eL)	.
8r	.
8ggL	.
8r	.
8eeL	.
8r	.
=925	=925
8aL	.
8r	.
8gL	.
8r	.
8ffL	.
8r	.
=926	=926
8eeL	.
8r	.
8eeL	p
8r	.
8ffL	.
8r	.
=927	=927
8ggL	.
8r	.
8ffL	.
8r	.
8ee	.
8r	.
=928	=928
8gL	.
(8gg	.
8aa	.
8ff#	.
8ggL)	.
8r	.
=929	=929
8r	.
(8ff	.
8gg	.
8ee	.
8ffL)	.
8r	.
=930	=930
8r	.
(8ee	.
8ff	.
8dd	.
8eeL)	.
8r	.
=931	=931
8r	.
(8dd	.
8ee	.
8cc	.
8ddL)	.
8r	.
=932	=932
8r	.
(8ccL	.
8dd	.
8b	.
8cc	.
8b	.
=933	=933
8aL	.
8b	.
8g	.
8a	.
8b	.
8cc)	.
=934	=934
(8ccL	.
8b	.
8cc	.
8a	.
8b	.
8cc	.
=935	=935
8eeL	.
8b	.
8ee	.
8dd	.
8cc	.
8ee)	.
=936	=936
(2dd	<
4aa	[
=937	=937
2gg#)	>
!LO:TX:t=cresc.	!
[4aa	<
=938	=938
2aa	.
4aa	.
=939	=939
2bb-	.
[4cc [4aa	f
=940	=940
4.cc 4.aa	.
8r	.
[4cc [4aa	sf
=941	=941
4.cc 4.aa	.
8r	.
[4a [4ff	sf
=942	=942
4.a 4.ff	.
8r	.
[4ee	sf
=943	=943
4.ee	.
8r	.
4r	.
=944	=944
2.r	.
=945	=945
2.r	.
=946	=946
4r	.
4r	.
(8bL	p
8cc	.
=947	=947
8cc#L	.
8dd	.
8cc	.
8b)	.
[4c [4a	ff
=948	=948
4.c 4.a	.
8r	.
[4cc [4aa	sf
=949	=949
4.cc 4.aa	.
8r	.
[4a [4ff	sf
=950	=950
4.a 4.ff	.
8r	.
[4a [4ee	sf
=951	=951
4.a 4.ee	.
8r	.
4r	.
=952	=952
2.r	.
=953	=953
4r	.
4r	.
(8cc#L	p
8dd)	.
=954	=954
2.bb-	.
=955	=955
(4gg	.
4ee)	.
4cc	.
=956	=956
2.r	.
=957	=957
!LO:TX:t=cresc.	!
[2.cc	<
=958	=958
!LO:TX:t=dim.	!
8ccL	>
8b-	.
8a	.
[8g	.
8g	.
[8f	.
=959	=959
8fL	.
8e	.
8d	.
8c	.
[4B-	.
=960	=960
(4B-	p
4A)	.
(8ccL	.
8ff)	.
=961	=961
(8ffL	.
8ee	.
8dd	.
8cc	.
[4b-)	.
=962	=962
(4b-	.
4a)	.
4r	.
=963	=963
2.r	.
=964	=964
2.r	.
=965	=965
2.r	.
=966	=966
4r	.
4r	.
(4a	pp
=967	=967
4f#	.
4g	.
4B	.
=968	=968
4d	.
4c	.
4a	.
=969	=969
4d	.
4cc	.
4b	.
=970	=970
4dd	.
4cc)	.
!LO:TX:t=sempre pp	!
(4ff	.
=971	=971
4dd	.
4g	.
[4b-	.
=972	=972
4b-	.
4a)	.
([4ff	.
=973	=973
4ff	.
4dd	.
4g	.
=974	=974
4b-	.
4a)	.
(4a	.
=975	=975
4g#	.
4a	.
4c#	.
=976	=976
4e	.
4d)	.
(4d	.
=977	=977
4e-	.
4d)	.
([4B	.
=978	=978
8BL	.
8d	.
4c)	.
([4c	.
=979	=979
4c	.
4B	.
[4d	.
=980	=980
8dL	.
8f	.
4e)	.
!LO:TX:t=sempre pp	!
(4cc	.
=981	=981
4b	.
4cc	.
4b	.
=982	=982
4g#)	.
4a	.
4cc	.
=983	=983
2.b	.
=984	=984
4cc	.
(4e	.
[4A	.
=985	=985
!LO:TX:t=cresc.	!
4A	.
4G#)	.
(8bL	.
8g#)	.
=986	=986
(4.c	.
8A	.
8e)	.
[8c	.
=987	=987
(4c	.
8BL)	.
8r	.
(8ddL	.
8b)	.
=988	=988
(4.cc	.
8g	.
8ee	.
8cc)	.
=989	=989
2.r	.
=990	=990
!LO:TX:B:t=Accel.	!
(4.g	.
8e	.
8cc	.
8g)	.
=991	=991
(4.g	.
8e	.
8cc	.
8g)	.
=992	=992
2.r	.
=993	=993
(4.ccc	.
8ee	.
8ccc)	.
8aa	.
=994	=994
2.r	.
=995	=995
(4.B	.
8G#	.
8d)	.
8B	.
=996	=996
(8BL	.
8G#	.
8d)	.
8r	.
4r	.
=997	=997
(8dL	.
8B	.
8g#)	.
8r	.
4r	.
=998	=998
(8ddL	.
8b	.
8bb)	.
(8bbL	.
8aa	.
8gg#)	.
=999||	=999||
8aaL	f
8cc	.
8cL	.
8c	.
8c	.
8c	.
=1000	=1000
8dL	sf
8dd	.
8dL	.
8d	.
8d	.
8d	.
=1001	=1001
8eL	sf
8c	.
8AL	.
8A	.
8A	.
8A	.
=1002	=1002
8BL	sf
8B	.
8B	.
8B	.
8eL	.
8e	.
=1003	=1003
8B-L 8e	sf
8B- 8e	.
8B- 8e	.
8B- 8e	.
8B- 8e	.
8B- 8e	.
=1004	=1004
8AL 8f	sf
8A 8f	.
8A 8f	.
8A 8f	.
8A 8f	.
8A 8f	.
=1005	=1005
8cL 8e	sf
8c 8e	.
8c 8e	.
8c 8e	.
8BL 8d	.
8B 8d	.
=1006	=1006
8BL 8d	sf
8B 8g	.
8B 8g	.
8B 8g	.
8dL 8f	.
8d 8f	.
=1007	=1007
8dL 8f	sf
8d 8f	.
8d 8f	.
8d 8f	.
8d 8f	.
8d 8f	.
=1008	=1008
8AL 8e	sf
8A 8e	.
8A 8e	.
8A 8e	.
8A 8e	.
8A 8e	.
=1009	=1009
8GL	sf
8B 8g	.
8BL 8g	.
8B 8g	.
8B 8g	.
8B 8g	.
=1010	=1010
8BL 8f#	sf
8B 8f#	.
8B 8f#	.
8B 8f#	.
8G#L 8f	.
8G#	.
=1011	=1011
8eL	sf
8e	.
8cL 8e	.
8c 8e	.
8c 8e	.
8c 8e	.
=1012	=1012
8BL 8e	sf
8B 8e	.
8B 8e	.
8B 8e	.
8cL 8e	.
8c 8e	.
=1013	=1013
8BL 8e	.
8B 8e	.
8B 8e	.
8B 8e	.
8BL 8e	p
8B 8e	.
=1014	=1014
2.B 2.e	.
=1015	=1015
[2.c# [2.e	.
=1016	=1016
2.c# 2.e	.
=1017||	=1017||
*k[f#c#g#]	*
*A:	*
2d 2e	.
4c# 4e	.
=1018	=1018
(4B	.
4b	.
[4e)	.
=1019	=1019
(4e	.
4ee	<
4e)	.
=1020	=1020
(4A	.
4a	.
[4A)	.
=1021	=1021
(4A	[
2B)	.
=1022	=1022
(2G#	.
4B	.
=1023	=1023
4c#	.
4A	.
[4c#)	.
=1024	=1024
(4c#	.
4A	.
4c#)	.
=1025	=1025
[4d	.
(8dL	.
8c#	.
8B	.
8A	.
=1026	=1026
4G#	.
4A	.
4G#	.
=1027	=1027
4A	.
4c#	.
[4e)	.
=1028	=1028
4e	.
[2d#	.
=1029	=1029
(4d#	.
4e	.
[4B)	.
=1030	=1030
(4B	<
4d	.
4c#	[
=1031	=1031
4c#	>
4d	.
[4A)	]
=1032	=1032
2A	.
[4A	.
=1033	=1033
2A	.
[4a	<
=1034	=1034
2a	.
4B 4g#	[
=1035	=1035
*^	*
(4a	2.A	>
4e	.	.
8f#L	.	.
8g)	.	.
*v	*v	*
=1036	=1036
(2A	<
4a	.
=1037	=1037
2A	.
4a	[
=1038	=1038
4A	>
4a	.
4B) 4g#	]
=1039	=1039
4r	.
4A 4e	pp
4r	.
=1040	=1040
2.r	.
=1041	=1041
4r	.
(8gg#L	pp
8aa	.
8gg#	.
8ff#)	.
=1042	=1042
(8ff#L	.
8ee	.
8ff#	.
8b	.
8cc#	.
8dd)	.
=1043	=1043
(4cc#	.
2ee)	.
=1044	=1044
2.r	.
=1045	=1045
4r	.
!LO:TX:t=cresc.	!
(8gg#L	<
8aa	.
8gg#	.
8ff#)	.
=1046	=1046
!LO:TX:t=poco  a  poco	!
(8ff#L	.
8ee	.
8ff#	.
8b	.
8cc#	.
8dd)	.
=1047	=1047
4cc#	.
4cc#	.
4r	.
=1048	=1048
4cc#	.
4cc#	.
4r	.
=1049	=1049
4f#	.
4ff#	.
4r	.
=1050	=1050
4b	.
4g# 4b	.
4r	.
=1051	=1051
8aL	.
8cc#	.
8ee	.
8dd	.
8cc#	.
8b	.
=1052	=1052
8aL	.
8g#	.
8a	.
8g	.
8f#	.
8e	.
=1053	=1053
8dL	.
8cc#	.
8dd	.
8cc#	.
8b	.
8a	.
=1054	=1054
8g#L	.
8dd#	.
8ee	.
8dd	.
8cc#	.
8b	.
=1055	=1055
(8cc#L	f
8e	.
8a)	.
(8cc#L	.
8e	.
8a)	.
=1056	=1056
(8ddL	sf
8g#	.
8b)	.
(8ddL	.
8g#	.
8b)	.
=1057	=1057
(8eeL	sf
8a	.
8cc#)	.
(8eeL	.
8a	.
8cc#)	.
=1058	=1058
(8fL	sf
8G#	.
8d)	.
(8ffL	.
8dd	.
8ff)	.
=1059	=1059
!LO:TX:t=dim.	!
4ee	>
4ee	.
4ee	.
=1060	=1060
4ee	.
4ccc#	.
4ddd	.
=1061	=1061
4ccc#	p
4ee	.
4ee	.
=1062	=1062
!LO:TX:t=piu p	!
4ee	.
4ccc#	.
4ddd	.
=1063	=1063
4ccc#	pp
4r	.
4r	.
=1064	=1064
4A	.
4r	.
4r	.
=1065	=1065
4f#	.
4r	.
4r	.
=1066	=1066
4r	.
!LO:TX:t=cresc.	!
2A	<
=1067	=1067
4A	[
2d#t	.
=1068	=1068
4e	f
4ee	.
4r	.
=1069	=1069
4A	.
4a	.
4r	.
=1070	=1070
4e	.
[2ee	fp
=1071	=1071
2ee	.
(4g# 4ee	.
=1072	=1072
4a) 4ee	.
[2a [2ee	.
=1073	=1073
4a 4ee	.
[2a [2ee	.
=1074	=1074
4a 4ee	.
[2g# [2ee	.
=1075	=1075
8g#L 8ee	.
8g#	.
8a	.
8g#	.
8a	<
8b	.
=1076	=1076
8eL	.
8f#	.
8f#	.
8e	.
8f#	.
8g#	.
=1077	=1077
8d#L	.
8cc#	.
8cc#L	.
8b	.
8cc#	.
8dd#	[
=1078	=1078
(8dd#L	.
8ee)	.
8b	.
8a	.
8b	.
8e	.
=1079	=1079
8bL	.
8cc#	.
8cc#	.
8dd	.
8dd#	.
8ee	.
=1080	=1080
8eeL	.
8a	.
8b	.
8cc#	.
8dd	.
8a	.
=1081	=1081
8aL	.
8b	.
8a	.
8aa	.
8gg#	.
8aa	.
=1082	=1082
8aL	.
8b	.
8a	.
8aa	.
8gg#	.
8aa	.
=1083	=1083
8aaL	.
8a	.
8a	.
8b	.
8g#	.
8b	.
=1084	=1084
8bL	>
8a	.
8a	.
8A	.
8a	]
8g	.
=1085	=1085
8f#L	.
8ff#	.
8g#	.
8a	.
8aa	.
8a	.
=1086	=1086
8aaL	.
8a	.
8g#L	.
8a	.
8a	.
8A	.
=1087	=1087
8aaL	.
8ff#	.
8ee	.
8cc#	.
8g#	.
8b	.
=1088	=1088
4r	.
(8eL	pp
8a	.
8g#	.
8a	.
=1089	=1089
8bL	.
8cc#	.
8dd	.
8ee	.
8ff#	.
8ee)	.
=1090	=1090
(4ee	.
2aa)	.
=1091	=1091
2.r	.
=1092	=1092
4r	.
(8eL	.
8a	.
8g#	.
8a	.
=1093	=1093
8bL	.
8cc#	.
8dd	.
8ee	.
8ff#	.
8ee)	.
=1094	=1094
!LO:TX:t=cresc.	!
8cc#L	<
8c#	.
8cc#L	.
8cc#	.
8d	.
8dd	.
=1095	=1095
(8ddL	.
8cc#	.
8b)	.
(8b	.
8a	.
8g#)	.
=1096	=1096
4a	.
4a	.
4r	.
=1097	=1097
4ee	.
4ee	.
4r	.
=1098	=1098
4f#	.
4ff#	.
4r	.
=1099	=1099
4b	.
4b 4gg#	.
4r	.
=1100	=1100
!LO:TX:t=col punto d'arco	!
8aL	.
8cc#	.
8ee	.
8dd	.
8cc#	.
8b	.
=1101	=1101
8aL	.
8g#	.
8a	.
8g	.
8f#	.
8e	.
=1102	=1102
8dL	.
8cc#	.
8dd	.
8cc#	.
8b	.
8a	.
=1103	=1103
8g#L	.
8b	.
8ee	.
8dd	.
8cc#	.
8b	.
=1104	=1104
(8cc#L	f
8e	.
8cc#)	.
(8eL	.
8c#	.
8e)	.
=1105	=1105
(8fL	.
8d	.
8f)	.
(8ddL	.
8b	.
8dd)	.
=1106	=1106
(8eeL	.
8cc#	.
8ee)	.
(8eeL	.
8cc#	.
8ee)	.
=1107	=1107
(8ffL	.
8b	.
8g#)	.
(8ffL	.
8b	.
8dd)	.
=1108	=1108
!LO:TX:t=dim.	!
8eeL	>
(8ee	.
8ff	.
8ee	.
8ff	.
8ee)	.
=1109	=1109
(8ffL	.
8ee	.
8ff	.
8ee	.
8ff	.
8ee)	.
=1110	=1110
(8ff#L	p
8ee	.
8ff#	.
8ee	.
8ff#	.
8ee)	.
=1111	=1111
!LO:TX:t=piu p	!
(8ff#L	.
8ee	.
8ff#	.
8ee	.
8ff#	.
8ee)	.
=1112	=1112
4ee	pp
4r	.
4r	.
=1113	=1113
2.r	.
=1114	=1114
4aa	.
4r	.
4r	.
=1115	=1115
4f#	.
4r	.
4r	.
=1116	=1116
!LO:TX:t=cresc.	!
4d	<
2d#t	.
=1117	=1117
4e	f
4ee	.
4r	.
=1118	=1118
4a	.
4aa	.
4r	.
=1119	=1119
4e	.
4ee	.
4r	.
=1120	=1120
4r	.
4e	.
4ee	.
=1121	=1121
4cc#	.
4e	p
4ee	.
=1122	=1122
4cc#	.
4e	ff
4e 4b 4gg#	.
=1123	=1123
4e 4cc# 4aa	.
4r	.
4r	.
==	==
*-	*-
